; generated by PrusaSlicer 2.4.0+win64 on 2023-05-24 at 13:50:37 UTC

; 

; external perimeters extrusion width = 0.45mm
; perimeters extrusion width = 0.45mm
; infill extrusion width = 0.45mm
; solid infill extrusion width = 0.45mm
; top infill extrusion width = 0.40mm
; first layer extrusion width = 0.42mm

M73 P0 R14
M73 Q0 S14
M201 X1000 Y1000 Z200 E5000 ; sets maximum accelerations, mm/sec^2
M203 X200 Y200 Z12 E120 ; sets maximum feedrates, mm/sec
M204 P1250 R1250 T1250 ; sets acceleration (P, T) and retract acceleration (R), mm/sec^2
M205 X8.00 Y8.00 Z0.40 E4.50 ; sets the jerk limits, mm/sec
M205 S0 T0 ; sets the minimum extruding and travel feed rate, mm/sec
M107
;TYPE:Custom
M862.3 P "MK3" ; printer model check
M862.1 P0.4 ; nozzle diameter check
M115 U3.10.0 ; tell printer latest fw version
G90 ; use absolute coordinates
M83 ; extruder relative mode
M104 S215 ; set extruder temp
M140 S60 ; set bed temp
M190 S60 ; wait for bed temp
M109 S215 ; wait for extruder temp
G28 W ; home all without mesh bed level
G80 ; mesh bed leveling
G1 Z0.2 F720
G1 Y-3 F1000 ; go outside print area
G92 E0
G1 X60 E9 F1000 ; intro line
G1 X100 E12.5 F1000 ; intro line
G92 E0
M221 S95

; Don't change E values below. Excessive value can damage the printer.
M907 E430 ; set extruder motor current
G21 ; set units to millimeters
G90 ; use absolute coordinates
M83 ; use relative distances for extrusion
M900 K0.05 ; Filament gcode LA 1.5
M900 K30 ; Filament gcode LA 1.0
M107
;LAYER_CHANGE
;Z:0.2
;HEIGHT:0.2
;BEFORE_LAYER_CHANGE
G92 E0.0
;0.2


G1 E-.8 F2100
G1 Z.4 F720
;AFTER_LAYER_CHANGE
;0.2
G1 X106.639 Y99.583 F10800
G1 Z.2 F720
G1 E.8 F2100
M204 S800
;TYPE:Skirt/Brim
;WIDTH:0.42
G1 F1200
G1 X107.705 Y98.569 E.04612
G1 X109 Y98.246 E.04186
G1 X141 Y98.246 E1.00334
G1 X142.417 Y98.639 E.04612
M73 P1 R14
M73 Q1 S14
G1 X143.431 Y99.705 E.04612
G1 X143.754 Y101 E.04186
G1 X143.754 Y109 E.25083
G1 X143.361 Y110.417 E.04612
G1 X142.295 Y111.431 E.04612
G1 X141 Y111.754 E.04186
G1 X109 Y111.754 E1.00334
G1 X107.583 Y111.361 E.04612
G1 X106.569 Y110.295 E.04612
G1 X106.246 Y109 E.04186
G1 X106.246 Y101 E.25083
G1 X106.623 Y99.64 E.04424
M204 S1000
G1 X106.997 Y99.752 F10800
M204 S800
G1 F1200
G1 X107.015 Y99.693 E.00195
G1 X108.06 Y98.817 E.04278
G1 X109 Y98.623 E.03008
G1 X141 Y98.623 E1.00334
G1 X142.307 Y99.015 E.04278
G1 X143.183 Y100.06 E.04278
G1 X143.377 Y101 E.03008
G1 X143.377 Y109 E.25083
G1 X142.985 Y110.307 E.04278
G1 X141.94 Y111.183 E.04278
G1 X141 Y111.377 E.03008
G1 X109 Y111.377 E1.00334
G1 X107.693 Y110.985 E.04278
G1 X106.817 Y109.94 E.04278
G1 X106.623 Y109 E.03008
G1 X106.623 Y101 E.25083
G1 X106.979 Y99.81 E.03895
M204 S1000
; printing object 230524 m4 screw hole.stl id:0 copy 0
;WIPE_START
G1 F8640
G1 X107.015 Y99.693 E-.0282
G1 X108.06 Y98.817 E-.31505
G1 X109 Y98.623 E-.22155
G1 X109.845 Y98.623 E-.1952
;WIPE_END
M73 Q2 S14
G1 E-.04 F2100
G1 Z.6 F720
G1 X110.187 Y101.787 F10800
G1 Z.2 F720
G1 E.8 F2100
M204 S800
;TYPE:Perimeter
G1 F1200
M73 P2 R14
G1 X140.213 Y101.787 E.94144
G1 X140.213 Y108.213 E.20148
G1 X109.787 Y108.213 E.95398
G1 X109.787 Y101.787 E.20148
M73 P2 R13
G1 X110.127 Y101.787 E.01066
M204 S1000
G1 X109.41 Y101.41 F10800
M204 S800
;TYPE:External perimeter
G1 F1200
G1 X140.59 Y101.41 E.97763
G1 X140.59 Y108.59 E.22512
G1 X109.41 Y108.59 E.97763
M73 Q2 S13
G1 X109.41 Y101.47 E.22324
M204 S1000
G1 X109.809 Y101.44 F10800
;WIPE_START
G1 F8640
G1 X112.701 Y101.464 E-.76
;WIPE_END
G1 E-.04 F2100
G1 Z.6 F720
G1 X139.333 Y101.9 F10800
G1 Z.2 F720
G1 E.8 F2100
M204 S800
;TYPE:Solid infill
;WIDTH:0.422206
G1 F1200
M73 Q3 S13
G1 X139.93 Y102.497 E.02664
G1 X139.93 Y103.034 E.01692
G1 X138.966 Y102.07 E.04299
G1 X138.43 Y102.07 E.01692
G1 X139.93 Y103.57 E.06692
G1 X139.93 Y104.107 E.01692
G1 X137.893 Y102.07 E.09084
M73 P3 R13
G1 X137.357 Y102.07 E.01692
G1 X139.93 Y104.643 E.11477
G1 X139.93 Y105.179 E.01692
G1 X136.821 Y102.07 E.13869
G1 X136.284 Y102.07 E.01692
G1 X139.93 Y105.716 E.16261
G1 X139.93 Y106.252 E.01692
G1 X135.748 Y102.07 E.18654
G1 X135.211 Y102.07 E.01692
G1 X139.93 Y106.789 E.21046
G1 X139.93 Y107.325 E.01692
G1 X134.675 Y102.07 E.23438
G1 X134.139 Y102.07 E.01692
G1 X139.93 Y107.861 E.25831
G1 X139.93 Y107.93 E.00217
G1 X139.462 Y107.93 E.01475
G1 X133.602 Y102.07 E.26137
G1 X133.066 Y102.07 E.01692
G1 X138.926 Y107.93 E.26137
G1 X138.39 Y107.93 E.01692
G1 X132.529 Y102.07 E.26137
G1 X131.993 Y102.07 E.01692
G1 X137.853 Y107.93 E.26137
G1 X137.317 Y107.93 E.01692
G1 X131.457 Y102.07 E.26137
G1 X130.92 Y102.07 E.01692
G1 X136.781 Y107.93 E.26137
G1 X136.244 Y107.93 E.01692
G1 X130.384 Y102.07 E.26137
G1 X129.847 Y102.07 E.01692
G1 X135.708 Y107.93 E.26137
G1 X135.171 Y107.93 E.01692
G1 X129.311 Y102.07 E.26137
G1 X128.775 Y102.07 E.01692
G1 X134.635 Y107.93 E.26137
G1 X134.099 Y107.93 E.01692
G1 X128.238 Y102.07 E.26137
G1 X127.702 Y102.07 E.01692
G1 X133.562 Y107.93 E.26137
G1 X133.026 Y107.93 E.01692
G1 X127.166 Y102.07 E.26137
G1 X126.629 Y102.07 E.01692
M73 Q4 S13
G1 X132.489 Y107.93 E.26137
G1 X131.953 Y107.93 E.01692
M73 P4 R13
G1 X126.093 Y102.07 E.26137
G1 X125.556 Y102.07 E.01692
G1 X131.417 Y107.93 E.26137
G1 X130.88 Y107.93 E.01692
G1 X125.02 Y102.07 E.26137
G1 X124.484 Y102.07 E.01692
G1 X130.344 Y107.93 E.26137
G1 X129.807 Y107.93 E.01692
G1 X123.947 Y102.07 E.26137
G1 X123.411 Y102.07 E.01692
G1 X129.271 Y107.93 E.26137
G1 X128.735 Y107.93 E.01692
G1 X122.874 Y102.07 E.26137
G1 X122.338 Y102.07 E.01692
G1 X128.198 Y107.93 E.26137
G1 X127.662 Y107.93 E.01692
G1 X121.802 Y102.07 E.26137
G1 X121.265 Y102.07 E.01692
G1 X127.125 Y107.93 E.26137
G1 X126.589 Y107.93 E.01692
G1 X120.729 Y102.07 E.26137
G1 X120.192 Y102.07 E.01692
G1 X126.053 Y107.93 E.26137
G1 X125.516 Y107.93 E.01692
G1 X119.656 Y102.07 E.26137
G1 X119.12 Y102.07 E.01692
G1 X124.98 Y107.93 E.26137
G1 X124.444 Y107.93 E.01692
G1 X118.583 Y102.07 E.26137
G1 X118.047 Y102.07 E.01692
G1 X123.907 Y107.93 E.26137
G1 X123.371 Y107.93 E.01692
G1 X117.51 Y102.07 E.26137
G1 X116.974 Y102.07 E.01692
G1 X122.834 Y107.93 E.26137
G1 X122.298 Y107.93 E.01692
M73 Q5 S13
G1 X116.438 Y102.07 E.26137
G1 X115.901 Y102.07 E.01692
M73 P5 R13
G1 X121.762 Y107.93 E.26137
G1 X121.225 Y107.93 E.01692
G1 X115.365 Y102.07 E.26137
G1 X114.829 Y102.07 E.01692
G1 X120.689 Y107.93 E.26137
G1 X120.152 Y107.93 E.01692
G1 X114.292 Y102.07 E.26137
G1 X113.756 Y102.07 E.01692
G1 X119.616 Y107.93 E.26137
G1 X119.08 Y107.93 E.01692
G1 X113.219 Y102.07 E.26137
G1 X112.683 Y102.07 E.01692
G1 X118.543 Y107.93 E.26137
G1 X118.007 Y107.93 E.01692
G1 X112.147 Y102.07 E.26137
G1 X111.61 Y102.07 E.01692
G1 X117.47 Y107.93 E.26137
G1 X116.934 Y107.93 E.01692
G1 X111.074 Y102.07 E.26137
G1 X110.537 Y102.07 E.01692
G1 X116.398 Y107.93 E.26137
G1 X115.861 Y107.93 E.01692
G1 X110.07 Y102.139 E.2583
G1 X110.07 Y102.675 E.01692
G1 X115.325 Y107.93 E.23438
G1 X114.788 Y107.93 E.01692
G1 X110.07 Y103.212 E.21046
G1 X110.07 Y103.748 E.01692
G1 X114.252 Y107.93 E.18653
G1 X113.716 Y107.93 E.01692
G1 X110.07 Y104.284 E.16261
G1 X110.07 Y104.821 E.01692
G1 X113.179 Y107.93 E.13868
G1 X112.643 Y107.93 E.01692
G1 X110.07 Y105.357 E.11476
G1 X110.07 Y105.893 E.01692
G1 X112.107 Y107.93 E.09084
G1 X111.57 Y107.93 E.01692
G1 X110.07 Y106.43 E.06691
G1 X110.07 Y106.966 E.01692
G1 X111.034 Y107.93 E.04299
G1 X110.497 Y107.93 E.01692
G1 X109.9 Y107.333 E.02663
M204 S1000
; stop printing object 230524 m4 screw hole.stl id:0 copy 0
M106 S84.15
;LAYER_CHANGE
;Z:0.4
;HEIGHT:0.2
;BEFORE_LAYER_CHANGE
G92 E0.0
;0.4


;WIPE_START
G1 F8640
G1 X110.497 Y107.93 E-.195
G1 X111.034 Y107.93 E-.12385
G1 X110.07 Y106.966 E-.31475
G1 X110.07 Y106.43 E-.12385
M73 Q6 S13
G1 X110.078 Y106.438 E-.00254
;WIPE_END
G1 E-.04 F2100
G1 Z.6 F720
;AFTER_LAYER_CHANGE
;0.4
M104 S210 ; set temperature
G1 X106.246 Y106.438 F10800
G1 Z.4 F720
M73 P6 R13
G1 E.8 F2100
;TYPE:Skirt/Brim
;WIDTH:0.42
G1 F3000
G1 X106.246 Y101 E.17049
G1 X106.639 Y99.583 E.04612
G1 X107.705 Y98.569 E.04612
G1 X109 Y98.246 E.04186
G1 X141 Y98.246 E1.00334
G1 X142.417 Y98.639 E.04612
G1 X143.431 Y99.705 E.04612
G1 X143.754 Y101 E.04186
G1 X143.754 Y109 E.25083
G1 X143.361 Y110.417 E.04612
G1 X142.295 Y111.431 E.04612
G1 X141 Y111.754 E.04186
G1 X109 Y111.754 E1.00334
G1 X107.583 Y111.361 E.04612
G1 X106.569 Y110.295 E.04612
G1 X106.246 Y109 E.04186
G1 X106.246 Y106.498 E.07846
G1 X106.623 Y106.498 F10800
G1 F3000
G1 X106.623 Y101 E.17238
G1 X107.015 Y99.693 E.04278
G1 X108.06 Y98.817 E.04278
G1 X109 Y98.623 E.03008
G1 X141 Y98.623 E1.00334
G1 X142.307 Y99.015 E.04278
G1 X143.183 Y100.06 E.04278
G1 X143.377 Y101 E.03008
G1 X143.377 Y109 E.25083
G1 X142.985 Y110.307 E.04278
G1 X141.94 Y111.183 E.04278
G1 X141 Y111.377 E.03008
G1 X109 Y111.377 E1.00334
G1 X107.693 Y110.985 E.04278
G1 X106.817 Y109.94 E.04278
G1 X106.623 Y109 E.03008
G1 X106.623 Y106.558 E.07658
; printing object 230524 m4 screw hole.stl id:0 copy 0
;WIPE_START
G1 F8640
G1 X106.623 Y103.266 E-.76
;WIPE_END
G1 E-.04 F2100
G1 Z.8 F720
G1 X109.632 Y107.968 F10800
G1 Z.4 F720
G1 E.8 F2100
M204 S800
;TYPE:Perimeter
;WIDTH:0.45
G1 F2700
G1 X109.632 Y101.632 E.21446
G1 X140.368 Y101.632 E1.04037
G1 X140.368 Y108.368 E.228
G1 X109.632 Y108.368 E1.04037
G1 X109.632 Y108.028 E.01151
M204 S1000
G1 X109.225 Y108.775 F10800
M204 S800
;TYPE:External perimeter
G1 F1500
G1 X109.225 Y101.225 E.25556
G1 X140.775 Y101.225 E1.06793
G1 X140.775 Y108.775 E.25556
G1 X109.285 Y108.775 E1.0659
M204 S1000
M73 P7 R13
M73 Q7 S13
G1 X109.397 Y108.414 F10800
;WIPE_START
G1 F8640
G1 X109.259 Y105.484 E-.76
;WIPE_END
G1 E-.04 F2100
G1 Z.8 F720
G1 X139.418 Y108.246 F10800
G1 Z.4 F720
G1 E.8 F2100
;TYPE:Solid infill
;WIDTH:0.452429
G1 F4800
G1 X140.063 Y107.601 E.03105
G1 X140.063 Y107.022 E.01972
G1 X139.022 Y108.063 E.05012
G1 X138.443 Y108.063 E.01972
G1 X140.063 Y106.443 E.07801
G1 X140.063 Y105.864 E.01972
G1 X137.864 Y108.063 E.1059
G1 X137.284 Y108.063 E.01972
G1 X140.063 Y105.284 E.13379
G1 X140.063 Y104.705 E.01972
G1 X136.705 Y108.063 E.16167
G1 X136.126 Y108.063 E.01972
G1 X140.063 Y104.126 E.18956
G1 X140.063 Y103.547 E.01972
G1 X135.547 Y108.063 E.21745
G1 X134.968 Y108.063 E.01972
G1 X140.063 Y102.968 E.24534
G1 X140.063 Y102.389 E.01972
G1 X134.389 Y108.063 E.27323
G1 X133.81 Y108.063 E.01972
G1 X139.935 Y101.937 E.29496
G1 X139.356 Y101.937 E.01972
G1 X133.23 Y108.063 E.29496
G1 X132.651 Y108.063 E.01972
G1 X138.777 Y101.937 E.29496
G1 X138.197 Y101.937 E.01972
G1 X132.072 Y108.063 E.29496
G1 X131.493 Y108.063 E.01972
G1 X137.618 Y101.937 E.29496
G1 X137.039 Y101.937 E.01972
G1 X130.914 Y108.063 E.29496
G1 X130.335 Y108.063 E.01972
G1 X136.46 Y101.937 E.29496
G1 X135.881 Y101.937 E.01972
G1 X129.756 Y108.063 E.29496
G1 X129.177 Y108.063 E.01972
G1 X135.302 Y101.937 E.29496
G1 X134.723 Y101.937 E.01972
G1 X128.597 Y108.063 E.29496
G1 X128.018 Y108.063 E.01972
G1 X134.143 Y101.937 E.29496
G1 X133.564 Y101.937 E.01972
G1 X127.439 Y108.063 E.29496
G1 X126.86 Y108.063 E.01972
G1 X132.985 Y101.937 E.29496
G1 X132.406 Y101.937 E.01972
G1 X126.281 Y108.063 E.29496
G1 X125.702 Y108.063 E.01972
G1 X131.827 Y101.937 E.29496
G1 X131.248 Y101.937 E.01972
G1 X125.123 Y108.063 E.29496
G1 X124.543 Y108.063 E.01972
G1 X130.669 Y101.937 E.29496
G1 X130.09 Y101.937 E.01972
G1 X123.964 Y108.063 E.29496
G1 X123.385 Y108.063 E.01972
G1 X129.51 Y101.937 E.29496
G1 X128.931 Y101.937 E.01972
G1 X122.806 Y108.063 E.29496
G1 X122.227 Y108.063 E.01972
G1 X128.352 Y101.937 E.29496
G1 X127.773 Y101.937 E.01972
G1 X121.648 Y108.063 E.29496
G1 X121.069 Y108.063 E.01972
G1 X127.194 Y101.937 E.29496
G1 X126.615 Y101.937 E.01972
G1 X120.49 Y108.063 E.29496
G1 X119.91 Y108.063 E.01972
G1 X126.036 Y101.937 E.29496
G1 X125.456 Y101.937 E.01972
M73 Q8 S13
G1 X119.331 Y108.063 E.29496
G1 X118.752 Y108.063 E.01972
M73 P8 R13
G1 X124.877 Y101.937 E.29496
G1 X124.298 Y101.937 E.01972
G1 X118.173 Y108.063 E.29496
G1 X117.594 Y108.063 E.01972
G1 X123.719 Y101.937 E.29496
G1 X123.14 Y101.937 E.01972
G1 X117.015 Y108.063 E.29496
G1 X116.436 Y108.063 E.01972
G1 X122.561 Y101.937 E.29496
G1 X121.982 Y101.937 E.01972
G1 X115.856 Y108.063 E.29496
G1 X115.277 Y108.063 E.01972
G1 X121.403 Y101.937 E.29496
G1 X120.823 Y101.937 E.01972
G1 X114.698 Y108.063 E.29496
G1 X114.119 Y108.063 E.01972
G1 X120.244 Y101.937 E.29496
G1 X119.665 Y101.937 E.01972
G1 X113.54 Y108.063 E.29496
G1 X112.961 Y108.063 E.01972
G1 X119.086 Y101.937 E.29496
G1 X118.507 Y101.937 E.01972
G1 X112.382 Y108.063 E.29496
G1 X111.803 Y108.063 E.01972
G1 X117.928 Y101.937 E.29496
G1 X117.349 Y101.937 E.01972
G1 X111.223 Y108.063 E.29496
G1 X110.644 Y108.063 E.01972
G1 X116.769 Y101.937 E.29496
G1 X116.19 Y101.937 E.01972
G1 X110.065 Y108.063 E.29496
G1 X109.937 Y108.063 E.00435
G1 X109.937 Y107.611 E.01537
G1 X115.611 Y101.937 E.27322
G1 X115.032 Y101.937 E.01972
G1 X109.937 Y107.032 E.24534
G1 X109.937 Y106.453 E.01972
G1 X114.453 Y101.937 E.21745
G1 X113.874 Y101.937 E.01972
G1 X109.937 Y105.874 E.18956
G1 X109.937 Y105.295 E.01972
G1 X113.295 Y101.937 E.16167
G1 X112.716 Y101.937 E.01972
G1 X109.937 Y104.716 E.13378
G1 X109.937 Y104.136 E.01972
G1 X112.136 Y101.937 E.10589
G1 X111.557 Y101.937 E.01972
G1 X109.937 Y103.557 E.07801
G1 X109.937 Y102.978 E.01972
G1 X110.978 Y101.937 E.05012
G1 X110.399 Y101.937 E.01972
G1 X109.754 Y102.582 E.03105
; stop printing object 230524 m4 screw hole.stl id:0 copy 0
M106 S170.85
;LAYER_CHANGE
;Z:0.6
;HEIGHT:0.2
;BEFORE_LAYER_CHANGE
G92 E0.0
;0.6


;WIPE_START
G1 F8640
G1 X110.399 Y101.937 E-.21056
G1 X110.978 Y101.937 E-.13372
G1 X109.937 Y102.978 E-.33986
G1 X109.937 Y103.307 E-.07585
;WIPE_END
G1 E-.04 F2100
G1 Z.8 F720
;AFTER_LAYER_CHANGE
;0.6
G1 X106.246 Y103.307 F10800
G1 Z.6 F720
G1 E.8 F2100
;TYPE:Skirt/Brim
;WIDTH:0.42
G1 F3000
G1 X106.246 Y101 E.07232
G1 X106.639 Y99.583 E.04612
G1 X107.705 Y98.569 E.04612
G1 X109 Y98.246 E.04186
G1 X141 Y98.246 E1.00334
G1 X142.417 Y98.639 E.04612
G1 X143.431 Y99.705 E.04612
G1 X143.754 Y101 E.04186
G1 X143.754 Y109 E.25083
G1 X143.361 Y110.417 E.04612
G1 X142.295 Y111.431 E.04612
G1 X141 Y111.754 E.04186
G1 X109 Y111.754 E1.00334
G1 X107.583 Y111.361 E.04612
G1 X106.569 Y110.295 E.04612
G1 X106.246 Y109 E.04186
G1 X106.246 Y103.367 E.17663
G1 X106.623 Y103.367 F10800
G1 F3000
G1 X106.623 Y101 E.07421
G1 X107.015 Y99.693 E.04278
G1 X108.06 Y98.817 E.04278
G1 X109 Y98.623 E.03008
G1 X141 Y98.623 E1.00334
G1 X142.307 Y99.015 E.04278
G1 X143.183 Y100.06 E.04278
G1 X143.377 Y101 E.03008
G1 X143.377 Y109 E.25083
G1 X142.985 Y110.307 E.04278
M73 Q9 S13
G1 X141.94 Y111.183 E.04278
G1 X141 Y111.377 E.03008
G1 X109 Y111.377 E1.00334
M73 P9 R13
G1 X107.693 Y110.985 E.04278
G1 X106.817 Y109.94 E.04278
G1 X106.623 Y109 E.03008
G1 X106.623 Y103.427 E.17475
; printing object 230524 m4 screw hole.stl id:0 copy 0
;WIPE_START
G1 F8640
G1 X106.623 Y101 E-.56032
G1 X106.871 Y100.172 E-.19968
;WIPE_END
G1 E-.04 F2100
G1 Z1 F720
G1 X110.032 Y101.632 F10800
G1 Z.6 F720
G1 E.8 F2100
M204 S800
;TYPE:Perimeter
;WIDTH:0.45
G1 F2700
G1 X140.368 Y101.632 E1.02683
G1 X140.368 Y108.368 E.228
G1 X109.632 Y108.368 E1.04037
G1 X109.632 Y101.632 E.228
M73 P9 R12
G1 X109.972 Y101.632 E.01151
M204 S1000
G1 X109.225 Y101.225 F10800
M204 S800
;TYPE:External perimeter
G1 F1500
G1 X140.775 Y101.225 E1.06793
G1 X140.775 Y108.775 E.25556
G1 X109.225 Y108.775 E1.06793
G1 X109.225 Y101.285 E.25353
M204 S1000
M73 Q9 S12
G1 X109.624 Y101.256 F10800
;WIPE_START
G1 F8640
G1 X112.516 Y101.279 E-.76
;WIPE_END
G1 E-.04 F2100
G1 Z1 F720
G1 X139.418 Y101.754 F10800
G1 Z.6 F720
G1 E.8 F2100
;TYPE:Solid infill
;WIDTH:0.452429
G1 F4800
G1 X140.063 Y102.399 E.03105
G1 X140.063 Y102.978 E.01972
G1 X139.022 Y101.937 E.05012
G1 X138.443 Y101.937 E.01972
G1 X140.063 Y103.557 E.07801
G1 X140.063 Y104.136 E.01972
G1 X137.864 Y101.937 E.1059
G1 X137.284 Y101.937 E.01972
G1 X140.063 Y104.716 E.13379
G1 X140.063 Y105.295 E.01972
G1 X136.705 Y101.937 E.16167
G1 X136.126 Y101.937 E.01972
G1 X140.063 Y105.874 E.18956
G1 X140.063 Y106.453 E.01972
G1 X135.547 Y101.937 E.21745
G1 X134.968 Y101.937 E.01972
G1 X140.063 Y107.032 E.24534
