; generated by PrusaSlicer 2.4.0+win64 on 2023-06-07 at 14:06:21 UTC

; 

; external perimeters extrusion width = 0.45mm
; perimeters extrusion width = 0.45mm
; infill extrusion width = 0.45mm
; solid infill extrusion width = 0.45mm
; top infill extrusion width = 0.40mm
; first layer extrusion width = 0.42mm

; external perimeters extrusion width = 0.45mm
; perimeters extrusion width = 0.45mm
; infill extrusion width = 0.45mm
; solid infill extrusion width = 0.45mm
; top infill extrusion width = 0.40mm
; first layer extrusion width = 0.42mm

M73 P0 R87
M73 Q0 S88
M201 X1000 Y1000 Z200 E5000 ; sets maximum accelerations, mm/sec^2
M203 X200 Y200 Z12 E120 ; sets maximum feedrates, mm/sec
M204 P1250 R1250 T1250 ; sets acceleration (P, T) and retract acceleration (R), mm/sec^2
M205 X8.00 Y8.00 Z0.40 E4.50 ; sets the jerk limits, mm/sec
M205 S0 T0 ; sets the minimum extruding and travel feed rate, mm/sec
M107
;TYPE:Custom
M862.3 P "MK3" ; printer model check
M862.1 P0.4 ; nozzle diameter check
M115 U3.10.0 ; tell printer latest fw version
G90 ; use absolute coordinates
M83 ; extruder relative mode
M104 S215 ; set extruder temp
M140 S60 ; set bed temp
M190 S60 ; wait for bed temp
M109 S215 ; wait for extruder temp
G28 W ; home all without mesh bed level
G80 ; mesh bed leveling
G1 Z0.2 F720
G1 Y-3 F1000 ; go outside print area
G92 E0
G1 X60 E9 F1000 ; intro line
G1 X100 E12.5 F1000 ; intro line
G92 E0
M221 S95

; Don't change E values below. Excessive value can damage the printer.
M907 E430 ; set extruder motor current
G21 ; set units to millimeters
G90 ; use absolute coordinates
M83 ; use relative distances for extrusion
M900 K0.05 ; Filament gcode LA 1.5
M900 K30 ; Filament gcode LA 1.0
M107
;LAYER_CHANGE
;Z:0.2
;HEIGHT:0.2
;BEFORE_LAYER_CHANGE
G92 E0.0
;0.2


G1 E-.8 F2100
G1 Z.4 F720
;AFTER_LAYER_CHANGE
;0.2
G1 X91.015 Y74.693 F10800
G1 Z.2 F720
G1 E.8 F2100
M204 S800
;TYPE:Skirt/Brim
;WIDTH:0.42
G1 F1200
G1 X92.06 Y73.817 E.04278
G1 X93 Y73.623 E.03008
G1 X157 Y73.623 E2.00668
G1 X158.307 Y74.015 E.04278
G1 X159.183 Y75.06 E.04278
G1 X159.377 Y76 E.03008
G1 X159.377 Y131 E1.72449
G1 X158.985 Y132.307 E.04278
G1 X157.94 Y133.183 E.04278
G1 X157 Y133.377 E.03008
G1 X93 Y133.377 E2.00668
G1 X91.693 Y132.985 E.04278
M73 P0 R86
G1 X90.817 Y131.94 E.04278
G1 X90.623 Y131 E.03008
G1 X90.623 Y76 E1.72449
G1 X90.997 Y74.75 E.0409
M204 S1000
; printing object 230607 power connector test top.stl id:1 copy 0
;WIPE_START
G1 F8640
G1 X92.06 Y73.817 E-.32671
G1 X93 Y73.623 E-.22155
G1 X93.917 Y73.623 E-.21174
;WIPE_END
G1 E-.04 F2100
G1 Z.6 F720
G1 X150.042 Y122.599 F10800
G1 Z.2 F720
G1 E.8 F2100
M204 S800
;TYPE:External perimeter
G1 F1200
G1 X150.28 Y122.331 E.01122
G1 X150.56 Y122.074 E.01191
G1 X150.845 Y121.858 E.01121
G1 X151.169 Y121.659 E.01193
G1 X151.497 Y121.498 E.01144
G1 X151.863 Y121.363 E.01226
G1 X152.218 Y121.271 E.01147
G1 X152.605 Y121.21 E.01231
G1 X152.991 Y121.19 E.01212
G1 X153.355 Y121.206 E.01142
G1 X153.726 Y121.259 E.01173
G1 X154.099 Y121.351 E.01205
G1 X154.432 Y121.469 E.0111
G1 X154.781 Y121.631 E.01204
G1 X155.085 Y121.811 E.01109
G1 X155.396 Y122.038 E.01207
G1 X155.66 Y122.275 E.01115
G1 X155.92 Y122.569 E.0123
G1 X156.137 Y122.909 E.01264
G1 X156.274 Y123.242 E.01128
G1 X156.531 Y124.25 E.03264
G1 X156.59 Y124.619 E.01169
G1 X156.61 Y124.985 E.01149
G1 X156.595 Y125.329 E.01082
G1 X156.539 Y125.709 E.01204
G1 X156.294 Y126.693 E.0318
G1 X156.153 Y127.057 E.01223
G1 X155.961 Y127.373 E.0116
G1 X155.712 Y127.671 E.01215
G1 X155.45 Y127.918 E.01132
G1 X155.146 Y128.148 E.01194
G1 X154.842 Y128.336 E.01122
G1 X154.492 Y128.506 E.01218
G1 X154.149 Y128.633 E.01148
G1 X153.77 Y128.732 E.01227
G1 X153.408 Y128.789 E.01147
G1 X152.994 Y128.81 E.013
G1 X152.659 Y128.795 E.01053
G1 X152.26 Y128.738 E.01264
G1 X151.916 Y128.653 E.01112
G1 X151.554 Y128.525 E.01203
G1 X151.233 Y128.376 E.01109
G1 X150.902 Y128.181 E.01205
G1 X150.617 Y127.973 E.01108
G1 X150.329 Y127.717 E.01206
G1 X150.089 Y127.458 E.01107
G1 X149.856 Y127.152 E.01207
G1 X149.67 Y126.852 E.01106
G1 X149.497 Y126.499 E.01233
G1 X149.371 Y126.16 E.01134
G1 X149.27 Y125.777 E.01242
G1 X149.213 Y125.421 E.01132
G1 X149.189 Y125.002 E.01315
G1 X149.205 Y124.671 E.01038
G1 X149.261 Y124.263 E.01294
G1 X149.354 Y123.894 E.01191
G1 X149.473 Y123.556 E.01125
G1 X149.635 Y123.213 E.01189
G1 X149.817 Y122.904 E.01123
G1 X150.007 Y122.647 E.01002
M204 S1000
G1 X149.914 Y122.264 F10800
;WIPE_START
G1 F8640
G1 X150.28 Y122.331 E-.09646
G1 X150.56 Y122.074 E-.08773
G1 X150.845 Y121.858 E-.08257
G1 X151.169 Y121.659 E-.08786
G1 X151.497 Y121.498 E-.08425
G1 X151.863 Y121.363 E-.09026
G1 X152.218 Y121.271 E-.08449
G1 X152.605 Y121.21 E-.09063
G1 X152.846 Y121.197 E-.05575
;WIPE_END
G1 E-.04 F2100
G1 Z.6 F720
G1 X101.166 Y124.616 F10800
G1 Z.2 F720
G1 E.8 F2100
M204 S800
;TYPE:Perimeter
M73 Q0 S87
G1 F1200
G1 X101.1 Y124.145 E.01491
G1 X100.989 Y123.726 E.0136
G1 X100.85 Y123.352 E.01251
G1 X100.66 Y122.965 E.0135
G1 X100.455 Y122.634 E.01221
G1 X100.2 Y122.299 E.01321
G1 X99.935 Y122.013 E.01221
G1 X99.62 Y121.733 E.0132
G1 X99.305 Y121.504 E.01222
G1 X98.943 Y121.29 E.01319
G1 X98.589 Y121.125 E.01224
G1 X98.192 Y120.986 E.01318
G1 X97.812 Y120.892 E.01228
G1 X97.376 Y120.829 E.0138
G1 X97.004 Y120.812 E.01169
G1 X96.594 Y120.834 E.01288
G1 X96.157 Y120.898 E.01386
G1 X95.738 Y121.007 E.01355
G1 X95.36 Y121.147 E.01266
G1 X94.977 Y121.333 E.01335
G1 X94.641 Y121.54 E.01238
G1 X94.307 Y121.794 E.01314
G1 X94.013 Y122.07 E.01265
G1 X93.77 Y122.36 E.01185
G1 X93.786 Y119.787 E.08068
G1 X156.213 Y119.787 E1.95734
G1 X156.233 Y122.359 E.08063
G1 X155.929 Y122.009 E.01453
G1 X155.634 Y121.744 E.01243
G1 X155.292 Y121.496 E.01324
G1 X154.956 Y121.297 E.01224
G1 X154.575 Y121.12 E.01319
G1 X154.207 Y120.99 E.01224
G1 X153.798 Y120.889 E.01321
G1 X153.391 Y120.83 E.01289
G1 X152.99 Y120.812 E.01258
G1 X152.566 Y120.835 E.01331
G1 X152.141 Y120.901 E.01351
G1 X151.75 Y121.003 E.01265
G1 X151.348 Y121.151 E.01343
G1 X150.987 Y121.328 E.0126
G1 X150.631 Y121.546 E.01308
G1 X150.318 Y121.784 E.01236
G1 X150.011 Y122.066 E.01306
G1 X149.749 Y122.361 E.01237
G1 X149.502 Y122.696 E.01305
G1 X149.302 Y123.036 E.01238
G1 X149.124 Y123.412 E.01304
G1 X148.993 Y123.785 E.01239
G1 X148.891 Y124.19 E.01311
G1 X148.829 Y124.637 E.01413
G1 X148.812 Y125.004 E.01153
G1 X148.838 Y125.461 E.01434
G1 X148.9 Y125.855 E.01251
G1 X149.011 Y126.274 E.0136
G1 X149.15 Y126.648 E.01251
G1 X149.34 Y127.035 E.0135
G1 X149.545 Y127.366 E.01221
G1 X149.8 Y127.701 E.01321
G1 X150.065 Y127.987 E.01221
G1 X150.38 Y128.267 E.0132
G1 X150.695 Y128.496 E.01222
G1 X151.057 Y128.71 E.01319
G1 X151.411 Y128.875 E.01224
G1 X151.808 Y129.014 E.01318
G1 X152.188 Y129.108 E.01228
G1 X152.624 Y129.171 E.0138
G1 X152.996 Y129.188 E.01168
G1 X153.448 Y129.164 E.01419
G1 X153.847 Y129.101 E.01266
G1 X154.262 Y128.993 E.01345
G1 X154.64 Y128.853 E.01266
G1 X155.023 Y128.667 E.01335
G1 X155.359 Y128.46 E.01238
G1 X155.693 Y128.206 E.01314
G1 X155.987 Y127.93 E.01266
G1 X156.23 Y127.64 E.01185
G1 X156.214 Y130.213 E.08068
G1 X93.786 Y130.213 E1.95736
G1 X93.771 Y127.647 E.08044
G1 X94.071 Y127.991 E.0143
G1 X94.366 Y128.256 E.01243
G1 X94.708 Y128.504 E.01324
G1 X95.044 Y128.703 E.01224
G1 X95.425 Y128.88 E.01319
G1 X95.793 Y129.01 E.01224
G1 X96.202 Y129.111 E.01321
G1 X96.609 Y129.17 E.01289
G1 X97.01 Y129.188 E.01258
G1 X97.434 Y129.165 E.01331
G1 X97.859 Y129.099 E.01351
G1 X98.25 Y128.997 E.01265
G1 X98.652 Y128.849 E.01343
G1 X99.013 Y128.672 E.0126
G1 X99.369 Y128.454 E.01308
G1 X99.682 Y128.216 E.01236
G1 X99.989 Y127.934 E.01306
G1 X100.251 Y127.639 E.01237
G1 X100.498 Y127.304 E.01305
G1 X100.698 Y126.964 E.01238
G1 X100.876 Y126.588 E.01304
G1 X101.007 Y126.215 E.01239
G1 X101.109 Y125.81 E.01311
G1 X101.171 Y125.363 E.01413
G1 X101.188 Y124.996 E.01153
G1 X101.17 Y124.676 E.01005
M204 S1000
G1 X100.811 Y124.998 F10800
M204 S800
;TYPE:External perimeter
G1 F1200
G1 X100.795 Y125.329 E.01038
G1 X100.739 Y125.737 E.01294
G1 X100.646 Y126.106 E.01191
G1 X100.527 Y126.444 E.01125
G1 X100.365 Y126.787 E.01189
G1 X100.183 Y127.096 E.01123
G1 X99.958 Y127.401 E.0119
G1 X99.72 Y127.669 E.01122
G1 X99.44 Y127.926 E.01191
G1 X99.155 Y128.142 E.01121
G1 X98.831 Y128.341 E.01193
G1 X98.503 Y128.502 E.01144
G1 X98.137 Y128.637 E.01226
G1 X97.782 Y128.729 E.01147
G1 X97.395 Y128.79 E.01231
G1 X97.009 Y128.81 E.01212
G1 X96.645 Y128.794 E.01142
G1 X96.274 Y128.741 E.01173
G1 X95.901 Y128.649 E.01205
G1 X95.568 Y128.531 E.0111
G1 X95.219 Y128.369 E.01204
G1 X94.915 Y128.189 E.01109
G1 X94.604 Y127.962 E.01207
G1 X94.34 Y127.725 E.01115
G1 X94.08 Y127.431 E.0123
G1 X93.863 Y127.091 E.01264
G1 X93.726 Y126.758 E.01128
G1 X93.469 Y125.75 E.03264
G1 X93.41 Y125.381 E.01169
G1 X93.39 Y125.015 E.01149
G1 X93.405 Y124.671 E.01082
G1 X93.461 Y124.291 E.01204
G1 X93.706 Y123.307 E.0318
G1 X93.847 Y122.943 E.01223
G1 X94.039 Y122.627 E.0116
G1 X94.288 Y122.329 E.01215
G1 X94.55 Y122.082 E.01132
G1 X94.854 Y121.852 E.01194
G1 X95.158 Y121.664 E.01122
G1 X95.508 Y121.494 E.01218
G1 X95.851 Y121.367 E.01148
G1 X96.231 Y121.268 E.01231
G1 X96.631 Y121.21 E.01267
G1 X97.006 Y121.19 E.01175
G1 X97.341 Y121.205 E.01053
G1 X97.74 Y121.262 E.01264
G1 X98.084 Y121.347 E.01112
G1 X98.446 Y121.475 E.01203
G1 X98.767 Y121.624 E.01109
G1 X99.098 Y121.819 E.01205
G1 X99.383 Y122.027 E.01108
G1 X99.671 Y122.283 E.01206
G1 X99.911 Y122.542 E.01107
G1 X100.144 Y122.848 E.01207
G1 X100.33 Y123.148 E.01106
G1 X100.503 Y123.501 E.01233
G1 X100.629 Y123.84 E.01134
G1 X100.73 Y124.223 E.01242
G1 X100.787 Y124.579 E.01132
G1 X100.807 Y124.938 E.01127
M204 S1000
G1 X101.098 Y125.162 F10800
;WIPE_START
G1 F8640
G1 X100.795 Y125.329 E-.09023
G1 X100.739 Y125.737 E-.09527
G1 X100.646 Y126.106 E-.08774
G1 X100.527 Y126.444 E-.08281
G1 X100.365 Y126.787 E-.08757
G1 X100.183 Y127.096 E-.08274
G1 X99.958 Y127.401 E-.08765
G1 X99.72 Y127.669 E-.08266
G1 X99.518 Y127.855 E-.06335
;WIPE_END
G1 E-.04 F2100
G1 Z.6 F720
G1 X93.41 Y119.41 F10800
G1 Z.2 F720
G1 E.8 F2100
M204 S800
G1 F1200
G1 X156.59 Y119.41 E1.98097
G1 X156.613 Y122.513 E.09729
G1 X156.669 Y123.029 E.01627
G1 X156.752 Y123.526 E.0158
G1 X156.79 Y124.008 E.01518
G1 X156.79 Y125.992 E.06219
G1 X156.752 Y126.474 E.01518
G1 X156.669 Y126.971 E.0158
G1 X156.613 Y127.485 E.01619
G1 X156.593 Y127.996 E.01604
G1 X156.59 Y130.59 E.08134
G1 X93.41 Y130.59 E1.98098
G1 X93.407 Y127.996 E.08134
G1 X93.387 Y127.485 E.01604
G1 X93.331 Y126.971 E.01619
G1 X93.248 Y126.474 E.0158
G1 X93.21 Y125.992 E.01518
G1 X93.21 Y124.008 E.06219
G1 X93.248 Y123.526 E.01518
G1 X93.331 Y123.029 E.0158
G1 X93.387 Y122.515 E.01619
G1 X93.407 Y122.004 E.01604
G1 X93.41 Y119.47 E.07946
M204 S1000
G1 X93.756 Y119.611 F10800
;WIPE_START
G1 F8640
G1 X96.701 Y119.467 E-.76
;WIPE_END
G1 E-.04 F2100
G1 Z.6 F720
G1 X93.578 Y122.488 F10800
G1 Z.2 F720
G1 E.8 F2100
M204 S800
;TYPE:Gap fill
;WIDTH:0.105701
G1 F1200
G1 X93.744 Y122.75 E.00162
M204 S1000
G1 X93.612 Y122.834 F10800
M204 S800
;WIDTH:0.183056
G1 F1200
G1 X93.585 Y122.946 E.00135
M204 S1000
M204 S800
;WIDTH:0.152797
G1 X93.557 Y123.059 E.00106
M204 S1000
M204 S800
;WIDTH:0.122536
G1 X93.557 Y123.061 E.00001
M204 S1000
M204 S800
;WIDTH:0.122012
G1 X93.513 Y123.22 E.00108
M204 S1000
G1 X93.612 Y122.834 F10800
M204 S800
;WIDTH:0.187405
G1 F1200
G1 X93.7 Y122.535 E.00374
M204 S1000
;WIPE_START
G1 F8640
G1 X93.612 Y122.834 E-.07194
;WIPE_END
G1 E-.72806 F2100
G1 Z.6 F720
G1 X93.517 Y126.806 F10800
G1 Z.2 F720
G1 E.8 F2100
M204 S800
;WIDTH:0.11874
G1 F1200
G1 X93.556 Y126.939 E.00087
M204 S1000
M204 S800
;WIDTH:0.119291
G1 X93.556 Y126.941 E.00001
M204 S1000
M204 S800
;WIDTH:0.157792
G1 X93.59 Y127.074 E.00131
M204 S1000
M204 S800
;WIDTH:0.196293
G1 X93.624 Y127.208 E.00175
M204 S1000
M204 S800
;WIDTH:0.20153
G1 X93.704 Y127.471 E.00363
M204 S1000
;WIPE_START
G1 F8640
G1 X93.624 Y127.208 E-.06352
;WIPE_END
G1 E-.73648 F2100
G1 Z.6 F720
G1 X155.332 Y119.9 F10800
G1 Z.2 F720
G1 E.8 F2100
M204 S800
;TYPE:Solid infill
;WIDTH:0.422536
G1 F1200
G1 X155.93 Y120.498 E.02669
G1 X155.931 Y121.035 E.01696
G1 X154.965 Y120.07 E.0431
G1 X154.428 Y120.07 E.01695
G1 X155.939 Y121.58 E.06743
G1 X155.94 Y121.639 E.00185
G1 X155.812 Y121.524 E.00541
G1 X155.448 Y121.259 E.01422
G1 X155.088 Y121.047 E.01319
G1 X154.677 Y120.856 E.01429
G1 X153.891 Y120.07 E.03509
G1 X153.354 Y120.07 E.01695
G1 X153.91 Y120.625 E.02479
G1 X153.29 Y120.543 E.01972
G1 X152.818 Y120.07 E.02111
G1 X152.281 Y120.07 E.01695
G1 X152.752 Y120.542 E.02106
G1 X152.269 Y120.595 E.01536
G1 X151.744 Y120.07 E.02343
G1 X151.207 Y120.07 E.01695
G1 X151.828 Y120.691 E.02771
G1 X151.423 Y120.822 E.01344
G1 X150.67 Y120.07 E.0336
G1 X150.133 Y120.07 E.01695
G1 X151.047 Y120.984 E.0408
G1 X150.699 Y121.173 E.0125
G1 X149.596 Y120.07 E.04923
G1 X149.06 Y120.07 E.01695
G1 X150.375 Y121.385 E.05873
G1 X150.076 Y121.623 E.01206
G1 X148.523 Y120.07 E.06932
G1 X147.986 Y120.07 E.01695
G1 X149.797 Y121.881 E.08086
G1 X149.544 Y122.165 E.012
G1 X147.449 Y120.07 E.09354
G1 X146.912 Y120.07 E.01695
G1 X149.315 Y122.473 E.10728
G1 X149.11 Y122.805 E.01231
G1 X146.375 Y120.07 E.12208
G1 X145.838 Y120.07 E.01695
G1 X148.93 Y123.161 E.13801
G1 X148.777 Y123.546 E.01305
G1 X145.302 Y120.07 E.15516
G1 X144.765 Y120.07 E.01695
G1 X148.657 Y123.962 E.17373
G1 X148.574 Y124.416 E.01457
G1 X144.228 Y120.07 E.194
G1 X143.691 Y120.07 E.01695
G1 X148.533 Y124.912 E.21615
G1 X148.555 Y125.471 E.01767
G1 X143.154 Y120.07 E.24111
G1 X142.617 Y120.07 E.01695
G1 X148.931 Y126.384 E.28185
M204 S1000
;WIPE_START
G1 F8640
G1 X146.604 Y124.056 E-.76
;WIPE_END
G1 E-.04 F2100
G1 Z.6 F720
G1 X155.713 Y128.334 F10800
G1 Z.2 F720
G1 E.8 F2100
M204 S800
G1 F1200
G1 X155.941 Y128.562 E.0102
G1 X155.938 Y129.096 E.01684
G1 X155.528 Y128.686 E.01827
G1 X155.197 Y128.892 E.01231
G1 X155.934 Y129.629 E.03291
G1 X155.933 Y129.93 E.0095
G1 X155.699 Y129.93 E.00738
G1 X154.839 Y129.071 E.03836
G1 X154.455 Y129.223 E.01305
G1 X155.162 Y129.93 E.03155
G1 X154.625 Y129.93 E.01695
G1 X154.038 Y129.344 E.02618
G1 X153.586 Y129.429 E.01452
G1 X154.088 Y129.93 E.02239
G1 X153.551 Y129.93 E.01695
G1 X153.087 Y129.466 E.02071
G1 X152.527 Y129.443 E.0177
G1 X153.014 Y129.93 E.02176
G1 X152.477 Y129.93 E.01695
G1 X151.613 Y129.066 E.03858
M204 S1000
;WIPE_START
G1 F8640
G1 X152.477 Y129.93 E-.28221
G1 X153.014 Y129.93 E-.12396
G1 X152.527 Y129.443 E-.15915
G1 X153.087 Y129.466 E-.1295
G1 X153.287 Y129.666 E-.06518
;WIPE_END
G1 E-.04 F2100
G1 Z.6 F720
G1 X152.11 Y130.1 F10800
G1 Z.2 F720
G1 E.8 F2100
M204 S800
G1 F1200
G1 X151.011 Y129 E.04909
G1 X150.539 Y128.733 E.0171
G1 X150.202 Y128.487 E.01317
G1 X149.867 Y128.189 E.01416
G1 X149.583 Y127.884 E.01316
G1 X149.311 Y127.527 E.01417
G1 X149.092 Y127.172 E.01316
G1 X149.005 Y126.995 E.00623
G1 X142.08 Y120.07 E.30912
G1 X141.544 Y120.07 E.01695
G1 X151.404 Y129.93 E.44016
G1 X150.867 Y129.93 E.01695
G1 X141.007 Y120.07 E.44016
G1 X140.47 Y120.07 E.01695
G1 X150.33 Y129.93 E.44016
G1 X149.793 Y129.93 E.01695
G1 X139.933 Y120.07 E.44016
G1 X139.396 Y120.07 E.01695
M73 P1 R86
M73 Q1 S87
G1 X149.256 Y129.93 E.44016
G1 X148.719 Y129.93 E.01695
G1 X138.859 Y120.07 E.44016
G1 X138.322 Y120.07 E.01695
G1 X148.183 Y129.93 E.44016
G1 X147.646 Y129.93 E.01695
G1 X137.786 Y120.07 E.44016
G1 X137.249 Y120.07 E.01695
G1 X147.109 Y129.93 E.44016
G1 X146.572 Y129.93 E.01695
G1 X136.712 Y120.07 E.44016
G1 X136.175 Y120.07 E.01695
G1 X146.035 Y129.93 E.44016
G1 X145.498 Y129.93 E.01695
G1 X135.638 Y120.07 E.44016
G1 X135.101 Y120.07 E.01695
G1 X144.961 Y129.93 E.44016
G1 X144.425 Y129.93 E.01695
G1 X134.564 Y120.07 E.44016
G1 X134.028 Y120.07 E.01695
G1 X143.888 Y129.93 E.44016
G1 X143.351 Y129.93 E.01695
G1 X133.491 Y120.07 E.44016
G1 X132.954 Y120.07 E.01695
G1 X142.814 Y129.93 E.44016
G1 X142.277 Y129.93 E.01695
G1 X132.417 Y120.07 E.44016
G1 X131.88 Y120.07 E.01695
G1 X141.74 Y129.93 E.44016
G1 X141.203 Y129.93 E.01695
G1 X131.343 Y120.07 E.44016
G1 X130.806 Y120.07 E.01695
G1 X140.667 Y129.93 E.44016
G1 X140.13 Y129.93 E.01695
