; generated by PrusaSlicer 2.4.0+win64 on 2023-06-07 at 09:31:43 UTC

; 

; external perimeters extrusion width = 0.45mm
; perimeters extrusion width = 0.45mm
; infill extrusion width = 0.45mm
; solid infill extrusion width = 0.45mm
; top infill extrusion width = 0.40mm
; first layer extrusion width = 0.42mm

M73 P0 R102
M73 Q0 S103
M201 X1000 Y1000 Z200 E5000 ; sets maximum accelerations, mm/sec^2
M203 X200 Y200 Z12 E120 ; sets maximum feedrates, mm/sec
M204 P1250 R1250 T1250 ; sets acceleration (P, T) and retract acceleration (R), mm/sec^2
M205 X8.00 Y8.00 Z0.40 E4.50 ; sets the jerk limits, mm/sec
M205 S0 T0 ; sets the minimum extruding and travel feed rate, mm/sec
M107
;TYPE:Custom
M862.3 P "MK3" ; printer model check
M862.1 P0.4 ; nozzle diameter check
M115 U3.10.0 ; tell printer latest fw version
G90 ; use absolute coordinates
M83 ; extruder relative mode
M104 S215 ; set extruder temp
M140 S60 ; set bed temp
M190 S60 ; wait for bed temp
M109 S215 ; wait for extruder temp
G28 W ; home all without mesh bed level
G80 ; mesh bed leveling
G1 Z0.2 F720
G1 Y-3 F1000 ; go outside print area
G92 E0
G1 X60 E9 F1000 ; intro line
G1 X100 E12.5 F1000 ; intro line
G92 E0
M221 S95

; Don't change E values below. Excessive value can damage the printer.
M907 E430 ; set extruder motor current
G21 ; set units to millimeters
G90 ; use absolute coordinates
M83 ; use relative distances for extrusion
M900 K0.05 ; Filament gcode LA 1.5
M900 K30 ; Filament gcode LA 1.0
M107
;LAYER_CHANGE
;Z:0.2
;HEIGHT:0.2
;BEFORE_LAYER_CHANGE
G92 E0.0
;0.2


G1 E-.8 F2100
G1 Z.4 F720
;AFTER_LAYER_CHANGE
;0.2
G1 X87.015 Y89.693 F10800
G1 Z.2 F720
G1 E.8 F2100
M204 S800
;TYPE:Skirt/Brim
;WIDTH:0.42
G1 F1200
G1 X88.06 Y88.817 E.04278
G1 X89 Y88.623 E.03008
G1 X161 Y88.623 E2.25751
G1 X162.307 Y89.015 E.04278
G1 X163.183 Y90.06 E.04278
G1 X163.377 Y91 E.03008
G1 X163.377 Y119 E.87792
G1 X162.985 Y120.307 E.04278
G1 X161.94 Y121.183 E.04278
G1 X161 Y121.377 E.03008
G1 X89 Y121.377 E2.25751
G1 X87.693 Y120.985 E.04278
G1 X86.817 Y119.94 E.04278
G1 X86.623 Y119 E.03008
G1 X86.623 Y91 E.87792
G1 X86.997 Y89.75 E.0409
M204 S1000
; printing object 230607 xlr hole test.stl id:0 copy 0
;WIPE_START
G1 F8640
G1 X88.06 Y88.817 E-.32671
G1 X89 Y88.623 E-.22155
G1 X89.917 Y88.623 E-.21174
;WIPE_END
G1 E-.04 F2100
G1 Z.6 F720
G1 X90.187 Y91.787 F10800
G1 Z.2 F720
G1 E.8 F2100
M204 S800
;TYPE:Perimeter
G1 F1200
G1 X160.213 Y91.787 E2.19561
G1 X160.213 Y118.213 E.82856
G1 X89.787 Y118.213 E2.20815
G1 X89.787 Y91.787 E.82856
G1 X90.127 Y91.787 E.01066
M204 S1000
G1 X89.41 Y91.41 F10800
M204 S800
;TYPE:External perimeter
G1 F1200
G1 X160.59 Y91.41 E2.2318
G1 X160.59 Y118.59 E.85221
G1 X89.41 Y118.59 E2.2318
G1 X89.41 Y91.47 E.85033
M204 S1000
G1 X89.807 Y91.459 F10800
;WIPE_START
G1 F8640
G1 X92.701 Y91.467 E-.76
;WIPE_END
G1 E-.04 F2100
G1 Z.6 F720
G1 X159.333 Y91.9 F10800
G1 Z.2 F720
G1 E.8 F2100
M204 S800
;TYPE:Solid infill
;WIDTH:0.421908
G1 F1200
G1 X159.93 Y92.497 E.02659
G1 X159.93 Y93.033 E.01689
G1 X158.967 Y92.07 E.04291
G1 X158.431 Y92.07 E.01689
G1 X159.93 Y93.569 E.0668
G1 X159.93 Y94.105 E.01689
G1 X157.895 Y92.07 E.09069
G1 X157.359 Y92.07 E.01689
G1 X159.93 Y94.641 E.11457
G1 X159.93 Y95.177 E.01689
G1 X156.823 Y92.07 E.13846
G1 X156.287 Y92.07 E.01689
G1 X159.93 Y95.713 E.16234
G1 X159.93 Y96.249 E.01689
G1 X155.751 Y92.07 E.18623
G1 X155.215 Y92.07 E.01689
G1 X159.93 Y96.785 E.21012
G1 X159.93 Y97.321 E.01689
G1 X154.679 Y92.07 E.234
G1 X154.143 Y92.07 E.01689
G1 X159.93 Y97.857 E.25789
G1 X159.93 Y98.392 E.01689
G1 X153.608 Y92.07 E.28177
G1 X153.072 Y92.07 E.01689
G1 X159.93 Y98.928 E.30566
G1 X159.93 Y99.464 E.01689
G1 X152.536 Y92.07 E.32955
G1 X152 Y92.07 E.01689
G1 X159.93 Y100 E.35343
G1 X159.93 Y100.536 E.01689
G1 X151.464 Y92.07 E.37732
G1 X150.928 Y92.07 E.01689
G1 X159.93 Y101.072 E.4012
G1 X159.93 Y101.608 E.01689
G1 X150.392 Y92.07 E.42509
G1 X149.856 Y92.07 E.01689
G1 X159.93 Y102.144 E.44898
G1 X159.93 Y102.68 E.01689
G1 X149.32 Y92.07 E.47286
M73 Q0 S102
G1 X148.784 Y92.07 E.01689
G1 X159.93 Y103.216 E.49675
G1 X159.93 Y103.752 E.01689
G1 X148.248 Y92.07 E.52064
G1 X147.712 Y92.07 E.01689
G1 X159.93 Y104.288 E.54452
G1 X159.93 Y104.824 E.01689
G1 X147.176 Y92.07 E.56841
G1 X146.64 Y92.07 E.01689
G1 X159.93 Y105.36 E.59229
G1 X159.93 Y105.896 E.01689
G1 X146.104 Y92.07 E.61618
G1 X145.568 Y92.07 E.01689
M73 P0 R101
G1 X159.93 Y106.432 E.64007
G1 X159.93 Y106.968 E.01689
G1 X145.032 Y92.07 E.66395
G1 X144.496 Y92.07 E.01689
G1 X159.93 Y107.504 E.68784
G1 X159.93 Y108.04 E.01689
G1 X143.96 Y92.07 E.71172
G1 X143.424 Y92.07 E.01689
G1 X159.93 Y108.576 E.73561
G1 X159.93 Y109.112 E.01689
G1 X142.888 Y92.07 E.7595
G1 X142.352 Y92.07 E.01689
G1 X159.93 Y109.648 E.78338
G1 X159.93 Y110.184 E.01689
G1 X141.816 Y92.07 E.80727
G1 X141.28 Y92.07 E.01689
M73 P1 R101
M73 Q1 S102
G1 X159.93 Y110.72 E.83115
G1 X159.93 Y111.256 E.01689
G1 X140.744 Y92.07 E.85504
G1 X140.208 Y92.07 E.01689
G1 X159.93 Y111.792 E.87893
G1 X159.93 Y112.328 E.01689
G1 X139.672 Y92.07 E.90281
G1 X139.136 Y92.07 E.01689
G1 X159.93 Y112.864 E.9267
G1 X159.93 Y113.4 E.01689
G1 X138.6 Y92.07 E.95058
G1 X138.064 Y92.07 E.01689
G1 X159.93 Y113.936 E.97447
G1 X159.93 Y114.472 E.01689
G1 X137.528 Y92.07 E.99836
G1 X136.992 Y92.07 E.01689
G1 X159.93 Y115.008 E1.02224
G1 X159.93 Y115.544 E.01689
G1 X136.456 Y92.07 E1.04613
G1 X135.92 Y92.07 E.01689
G1 X159.93 Y116.08 E1.07002
G1 X159.93 Y116.615 E.01689
G1 X135.385 Y92.07 E1.0939
G1 X134.849 Y92.07 E.01689
G1 X159.93 Y117.151 E1.11779
G1 X159.93 Y117.687 E.01689
G1 X134.313 Y92.07 E1.14167
G1 X133.777 Y92.07 E.01689
G1 X159.637 Y117.93 E1.15249
G1 X159.101 Y117.93 E.01689
G1 X133.241 Y92.07 E1.15249
G1 X132.705 Y92.07 E.01689
G1 X158.565 Y117.93 E1.15249
G1 X158.029 Y117.93 E.01689
G1 X132.169 Y92.07 E1.15249
G1 X131.633 Y92.07 E.01689
G1 X157.493 Y117.93 E1.15249
G1 X156.957 Y117.93 E.01689
G1 X131.097 Y92.07 E1.15249
G1 X130.561 Y92.07 E.01689
G1 X156.421 Y117.93 E1.15249
G1 X155.885 Y117.93 E.01689
G1 X130.025 Y92.07 E1.15249
G1 X129.489 Y92.07 E.01689
G1 X155.349 Y117.93 E1.15249
G1 X154.813 Y117.93 E.01689
G1 X128.953 Y92.07 E1.15249
G1 X128.417 Y92.07 E.01689
G1 X154.277 Y117.93 E1.15249
G1 X153.741 Y117.93 E.01689
G1 X127.881 Y92.07 E1.15249
G1 X127.345 Y92.07 E.01689
M73 Q1 S101
G1 X153.205 Y117.93 E1.15249
G1 X152.669 Y117.93 E.01689
G1 X126.809 Y92.07 E1.15249
G1 X126.273 Y92.07 E.01689
G1 X152.133 Y117.93 E1.15249
G1 X151.597 Y117.93 E.01689
M73 P1 R100
G1 X125.737 Y92.07 E1.15249
G1 X125.201 Y92.07 E.01689
G1 X151.061 Y117.93 E1.15249
G1 X150.525 Y117.93 E.01689
G1 X124.665 Y92.07 E1.15249
G1 X124.129 Y92.07 E.01689
G1 X149.989 Y117.93 E1.15249
G1 X149.453 Y117.93 E.01689
G1 X123.593 Y92.07 E1.15249
G1 X123.057 Y92.07 E.01689
G1 X148.917 Y117.93 E1.15249
G1 X148.381 Y117.93 E.01689
M73 P2 R100
M73 Q2 S101
G1 X122.521 Y92.07 E1.15249
G1 X121.985 Y92.07 E.01689
G1 X147.846 Y117.93 E1.15249
G1 X147.31 Y117.93 E.01689
G1 X121.449 Y92.07 E1.15249
G1 X120.913 Y92.07 E.01689
G1 X146.774 Y117.93 E1.15249
G1 X146.238 Y117.93 E.01689
G1 X120.377 Y92.07 E1.15249
G1 X119.841 Y92.07 E.01689
G1 X145.702 Y117.93 E1.15249
G1 X145.166 Y117.93 E.01689
G1 X119.305 Y92.07 E1.15249
G1 X118.769 Y92.07 E.01689
G1 X144.63 Y117.93 E1.15249
G1 X144.094 Y117.93 E.01689
G1 X118.233 Y92.07 E1.15249
G1 X117.698 Y92.07 E.01689
G1 X143.558 Y117.93 E1.15249
G1 X143.022 Y117.93 E.01689
G1 X117.162 Y92.07 E1.15249
G1 X116.626 Y92.07 E.01689
G1 X142.486 Y117.93 E1.15249
G1 X141.95 Y117.93 E.01689
G1 X116.09 Y92.07 E1.15249
G1 X115.554 Y92.07 E.01689
G1 X141.414 Y117.93 E1.15249
G1 X140.878 Y117.93 E.01689
G1 X115.018 Y92.07 E1.15249
G1 X114.482 Y92.07 E.01689
G1 X140.342 Y117.93 E1.15249
G1 X139.806 Y117.93 E.01689
G1 X113.946 Y92.07 E1.15249
G1 X113.41 Y92.07 E.01689
G1 X139.27 Y117.93 E1.15249
G1 X138.734 Y117.93 E.01689
G1 X112.874 Y92.07 E1.15249
G1 X112.338 Y92.07 E.01689
G1 X138.198 Y117.93 E1.15249
G1 X137.662 Y117.93 E.01689
G1 X111.802 Y92.07 E1.15249
G1 X111.266 Y92.07 E.01689
G1 X137.126 Y117.93 E1.15249
G1 X136.59 Y117.93 E.01689
G1 X110.73 Y92.07 E1.15249
G1 X110.194 Y92.07 E.01689
M73 Q2 S100
G1 X136.054 Y117.93 E1.15249
G1 X135.518 Y117.93 E.01689
G1 X109.658 Y92.07 E1.15249
G1 X109.122 Y92.07 E.01689
G1 X134.982 Y117.93 E1.15249
G1 X134.446 Y117.93 E.01689
M73 P2 R99
G1 X108.586 Y92.07 E1.15249
G1 X108.05 Y92.07 E.01689
G1 X133.91 Y117.93 E1.15249
G1 X133.374 Y117.93 E.01689
G1 X107.514 Y92.07 E1.15249
G1 X106.978 Y92.07 E.01689
G1 X132.838 Y117.93 E1.15249
G1 X132.302 Y117.93 E.01689
G1 X106.442 Y92.07 E1.15249
G1 X105.906 Y92.07 E.01689
G1 X131.766 Y117.93 E1.15249
G1 X131.23 Y117.93 E.01689
G1 X105.37 Y92.07 E1.15249
G1 X104.834 Y92.07 E.01689
M73 P3 R99
G1 X130.694 Y117.93 E1.15249
G1 X130.159 Y117.93 E.01689
M73 Q3 S100
G1 X104.298 Y92.07 E1.15249
G1 X103.762 Y92.07 E.01689
G1 X129.623 Y117.93 E1.15249
G1 X129.087 Y117.93 E.01689
G1 X103.226 Y92.07 E1.15249
G1 X102.69 Y92.07 E.01689
G1 X128.551 Y117.93 E1.15249
G1 X128.015 Y117.93 E.01689
G1 X102.154 Y92.07 E1.15249
G1 X101.618 Y92.07 E.01689
G1 X127.479 Y117.93 E1.15249
G1 X126.943 Y117.93 E.01689
G1 X101.082 Y92.07 E1.15249
G1 X100.546 Y92.07 E.01689
G1 X126.407 Y117.93 E1.15249
G1 X125.871 Y117.93 E.01689
G1 X100.011 Y92.07 E1.15249
G1 X99.475 Y92.07 E.01689
G1 X125.335 Y117.93 E1.15249
G1 X124.799 Y117.93 E.01689
G1 X98.939 Y92.07 E1.15249
G1 X98.403 Y92.07 E.01689
G1 X124.263 Y117.93 E1.15249
G1 X123.727 Y117.93 E.01689
G1 X97.867 Y92.07 E1.15249
G1 X97.331 Y92.07 E.01689
G1 X123.191 Y117.93 E1.15249
G1 X122.655 Y117.93 E.01689
G1 X96.795 Y92.07 E1.15249
G1 X96.259 Y92.07 E.01689
G1 X122.119 Y117.93 E1.15249
G1 X121.583 Y117.93 E.01689
G1 X95.723 Y92.07 E1.15249
G1 X95.187 Y92.07 E.01689
G1 X121.047 Y117.93 E1.15249
G1 X120.511 Y117.93 E.01689
G1 X94.651 Y92.07 E1.15249
G1 X94.115 Y92.07 E.01689
G1 X119.975 Y117.93 E1.15249
G1 X119.439 Y117.93 E.01689
G1 X93.579 Y92.07 E1.15249
G1 X93.043 Y92.07 E.01689
M73 Q3 S99
G1 X118.903 Y117.93 E1.15249
G1 X118.367 Y117.93 E.01689
G1 X92.507 Y92.07 E1.15249
G1 X91.971 Y92.07 E.01689
G1 X117.831 Y117.93 E1.15249
G1 X117.295 Y117.93 E.01689
G1 X91.435 Y92.07 E1.15249
G1 X90.899 Y92.07 E.01689
M73 P3 R98
G1 X116.759 Y117.93 E1.15249
G1 X116.223 Y117.93 E.01689
G1 X90.363 Y92.07 E1.15249
G1 X90.07 Y92.07 E.00924
G1 X90.07 Y92.313 E.00765
G1 X115.687 Y117.93 E1.14167
G1 X115.151 Y117.93 E.01689
G1 X90.07 Y92.849 E1.11778
G1 X90.07 Y93.385 E.01689
G1 X114.615 Y117.93 E1.0939
G1 X114.079 Y117.93 E.01689
G1 X90.07 Y93.921 E1.07001
G1 X90.07 Y94.457 E.01689
G1 X113.543 Y117.93 E1.04613
G1 X113.007 Y117.93 E.01689
M73 P4 R98
G1 X90.07 Y94.993 E1.02224
G1 X90.07 Y95.528 E.01689
M73 Q4 S99
G1 X112.472 Y117.93 E.99835
G1 X111.936 Y117.93 E.01689
G1 X90.07 Y96.064 E.97447
G1 X90.07 Y96.6 E.01689
G1 X111.4 Y117.93 E.95058
G1 X110.864 Y117.93 E.01689
G1 X90.07 Y97.136 E.92669
G1 X90.07 Y97.672 E.01689
G1 X110.328 Y117.93 E.90281
G1 X109.792 Y117.93 E.01689
G1 X90.07 Y98.208 E.87892
G1 X90.07 Y98.744 E.01689
G1 X109.256 Y117.93 E.85504
G1 X108.72 Y117.93 E.01689
G1 X90.07 Y99.28 E.83115
G1 X90.07 Y99.816 E.01689
G1 X108.184 Y117.93 E.80726
G1 X107.648 Y117.93 E.01689
G1 X90.07 Y100.352 E.78338
G1 X90.07 Y100.888 E.01689
G1 X107.112 Y117.93 E.75949
G1 X106.576 Y117.93 E.01689
G1 X90.07 Y101.424 E.73561
G1 X90.07 Y101.96 E.01689
G1 X106.04 Y117.93 E.71172
G1 X105.504 Y117.93 E.01689
G1 X90.07 Y102.496 E.68783
G1 X90.07 Y103.032 E.01689
G1 X104.968 Y117.93 E.66395
G1 X104.432 Y117.93 E.01689
G1 X90.07 Y103.568 E.64006
G1 X90.07 Y104.104 E.01689
G1 X103.896 Y117.93 E.61618
G1 X103.36 Y117.93 E.01689
G1 X90.07 Y104.64 E.59229
G1 X90.07 Y105.176 E.01689
G1 X102.824 Y117.93 E.5684
G1 X102.288 Y117.93 E.01689
G1 X90.07 Y105.712 E.54452
G1 X90.07 Y106.248 E.01689
G1 X101.752 Y117.93 E.52063
G1 X101.216 Y117.93 E.01689
G1 X90.07 Y106.784 E.49675
G1 X90.07 Y107.32 E.01689
G1 X100.68 Y117.93 E.47286
G1 X100.144 Y117.93 E.01689
G1 X90.07 Y107.856 E.44897
G1 X90.07 Y108.392 E.01689
G1 X99.608 Y117.93 E.42509
G1 X99.072 Y117.93 E.01689
G1 X90.07 Y108.928 E.4012
G1 X90.07 Y109.464 E.01689
G1 X98.536 Y117.93 E.37731
G1 X98 Y117.93 E.01689
G1 X90.07 Y110 E.35343
G1 X90.07 Y110.536 E.01689
G1 X97.464 Y117.93 E.32954
G1 X96.928 Y117.93 E.01689
G1 X90.07 Y111.072 E.30566
G1 X90.07 Y111.608 E.01689
G1 X96.392 Y117.93 E.28177
G1 X95.856 Y117.93 E.01689
G1 X90.07 Y112.144 E.25788
G1 X90.07 Y112.68 E.01689
G1 X95.32 Y117.93 E.234
G1 X94.784 Y117.93 E.01689
G1 X90.07 Y113.216 E.21011
G1 X90.07 Y113.751 E.01689
G1 X94.249 Y117.93 E.18623
G1 X93.713 Y117.93 E.01689
G1 X90.07 Y114.287 E.16234
G1 X90.07 Y114.823 E.01689
G1 X93.177 Y117.93 E.13845
G1 X92.641 Y117.93 E.01689
G1 X90.07 Y115.359 E.11457
G1 X90.07 Y115.895 E.01689
G1 X92.105 Y117.93 E.09068
G1 X91.569 Y117.93 E.01689
G1 X90.07 Y116.431 E.0668
G1 X90.07 Y116.967 E.01689
G1 X91.033 Y117.93 E.04291
G1 X90.497 Y117.93 E.01689
G1 X89.9 Y117.334 E.02659
M204 S1000
; stop printing object 230607 xlr hole test.stl id:0 copy 0
M106 S84.15
;LAYER_CHANGE
;Z:0.4
;HEIGHT:0.2
;BEFORE_LAYER_CHANGE
G92 E0.0
;0.4


;WIPE_START
G1 F8640
G1 X90.497 Y117.93 E-.1948
G1 X91.033 Y117.93 E-.12376
G1 X90.07 Y116.967 E-.31441
G1 X90.07 Y116.431 E-.12376
G1 X90.08 Y116.441 E-.00328
;WIPE_END
G1 E-.04 F2100
G1 Z.6 F720
;AFTER_LAYER_CHANGE
;0.4
M104 S210 ; set temperature
G1 X86.623 Y116.441 F10800
G1 Z.4 F720
G1 E.8 F2100
;TYPE:Skirt/Brim
;WIDTH:0.42
G1 F3000
G1 X86.623 Y91 E.7977
G1 X87.015 Y89.693 E.04278
G1 X88.06 Y88.817 E.04278
G1 X89 Y88.623 E.03008
G1 X161 Y88.623 E2.25751
G1 X162.307 Y89.015 E.04278
M73 Q4 S98
G1 X163.183 Y90.06 E.04278
G1 X163.377 Y91 E.03008
G1 X163.377 Y119 E.87792
G1 X162.985 Y120.307 E.04278
G1 X161.94 Y121.183 E.04278
G1 X161 Y121.377 E.03008
G1 X89 Y121.377 E2.25751
G1 X87.693 Y120.985 E.04278
G1 X86.817 Y119.94 E.04278
G1 X86.623 Y119 E.03008
G1 X86.623 Y116.501 E.07834
; printing object 230607 xlr hole test.stl id:0 copy 0
;WIPE_START
G1 F8640
G1 X86.623 Y113.21 E-.76
;WIPE_END
G1 E-.04 F2100
G1 Z.8 F720
G1 X89.632 Y117.968 F10800
G1 Z.4 F720
G1 E.8 F2100
M204 S800
;TYPE:Perimeter
;WIDTH:0.45
G1 F2700
G1 X89.632 Y91.632 E.89144
G1 X160.368 Y91.632 E2.39432
G1 X160.368 Y118.368 E.90498
G1 X89.632 Y118.368 E2.39432
G1 X89.632 Y118.028 E.01151
M204 S1000
M73 P4 R97
G1 X89.225 Y118.775 F10800
M204 S800
;TYPE:External perimeter
G1 F1500
G1 X89.225 Y91.225 E.93253
G1 X160.775 Y91.225 E2.42188
G1 X160.775 Y118.775 E.93253
G1 X89.285 Y118.775 E2.41985
M204 S1000
G1 X89.381 Y118.407 F10800
;WIPE_START
G1 F8640
G1 X89.278 Y115.484 E-.76
;WIPE_END
G1 E-.04 F2100
G1 Z.8 F720
G1 X160.246 Y117.42 F10800
G1 Z.4 F720
G1 E.8 F2100
;TYPE:Solid infill
;WIDTH:0.451461
G1 F4800
G1 X159.603 Y118.063 E.03088
G1 X159.025 Y118.063 E.01963
G1 X160.063 Y117.025 E.04984
G1 X160.063 Y116.447 E.01963
G1 X158.447 Y118.063 E.07759
G1 X157.87 Y118.063 E.01963
G1 X160.063 Y115.87 E.10535
G1 X160.063 Y115.292 E.01963
G1 X157.292 Y118.063 E.13311
G1 X156.714 Y118.063 E.01963
G1 X160.063 Y114.714 E.16086
G1 X160.063 Y114.136 E.01963
G1 X156.136 Y118.063 E.18862
G1 X155.559 Y118.063 E.01963
G1 X160.063 Y113.559 E.21638
G1 X160.063 Y112.981 E.01963
G1 X154.981 Y118.063 E.24413
G1 X154.403 Y118.063 E.01963
G1 X160.063 Y112.403 E.27189
G1 X160.063 Y111.825 E.01963
G1 X153.825 Y118.063 E.29965
G1 X153.248 Y118.063 E.01963
G1 X160.063 Y111.248 E.3274
G1 X160.063 Y110.67 E.01963
G1 X152.67 Y118.063 E.35516
G1 X152.092 Y118.063 E.01963
G1 X160.063 Y110.092 E.38292
G1 X160.063 Y109.514 E.01963
G1 X151.514 Y118.063 E.41067
G1 X150.937 Y118.063 E.01963
G1 X160.063 Y108.937 E.43843
G1 X160.063 Y108.359 E.01963
G1 X150.359 Y118.063 E.46619
G1 X149.781 Y118.063 E.01963
G1 X160.063 Y107.781 E.49394
G1 X160.063 Y107.203 E.01963
G1 X149.203 Y118.063 E.5217
G1 X148.625 Y118.063 E.01963
G1 X160.063 Y106.625 E.54946
G1 X160.063 Y106.048 E.01963
G1 X148.048 Y118.063 E.57721
G1 X147.47 Y118.063 E.01963
G1 X160.063 Y105.47 E.60497
G1 X160.063 Y104.892 E.01963
G1 X146.892 Y118.063 E.63273
G1 X146.314 Y118.063 E.01963
G1 X160.063 Y104.314 E.66048
