; generated by PrusaSlicer 2.5.2+win64 on 2023-09-13 at 08:26:49 UTC

; 

; external perimeters extrusion width = 0.45mm
; perimeters extrusion width = 0.45mm
; infill extrusion width = 0.45mm
; solid infill extrusion width = 0.45mm
; top infill extrusion width = 0.40mm
; first layer extrusion width = 0.42mm

M73 P0 R71
M73 Q0 S72
M107
;TYPE:Custom
M862.3 P "MK3" ; printer model check
M862.1 P0.4 ; nozzle diameter check
M115 U3.10.0 ; tell printer latest fw version
G90 ; use absolute coordinates
M83 ; extruder relative mode
M104 S215 ; set extruder temp
M140 S60 ; set bed temp
M190 S60 ; wait for bed temp
M109 S215 ; wait for extruder temp
G28 W ; home all without mesh bed level
G80 ; mesh bed leveling
G1 Z0.2 F720
G1 Y-3 F1000 ; go outside print area
G92 E0
G1 X60 E9 F1000 ; intro line
G1 X100 E12.5 F1000 ; intro line
G92 E0
M221 S95

; Don't change E values below. Excessive value can damage the printer.
M907 E430 ; set extruder motor current
G21 ; set units to millimeters
G90 ; use absolute coordinates
M83 ; use relative distances for extrusion
M900 K0.05 ; Filament gcode LA 1.5
M900 K30 ; Filament gcode LA 1.0
M107
;LAYER_CHANGE
;Z:0.2
;HEIGHT:0.2
;BEFORE_LAYER_CHANGE
G92 E0.0
;0.2


G1 E-.8 F2100
G1 Z.4 F720
;AFTER_LAYER_CHANGE
;0.2
G1 X94.353 Y75.257 F10800
G1 Z.2 F720
G1 E.8 F2100
M204 S800
;TYPE:Skirt/Brim
;WIDTH:0.42
G1 F1200
G1 X95.447 Y74.198 E.04774
G1 X96.719 Y73.395 E.04716
G1 X98.08 Y72.879 E.04565
G1 X99.444 Y72.646 E.04337
G1 X150.107 Y72.625 E1.58851
G1 X151.454 Y72.769 E.04247
M73 Q0 S71
G1 X152.825 Y73.187 E.04495
G1 X154.137 Y73.895 E.04675
G1 X155.127 Y74.699 E.03998
G1 X155.802 Y75.447 E.03159
G1 X156.605 Y76.719 E.04716
G1 X157.121 Y78.08 E.04565
G1 X157.354 Y79.444 E.04337
G1 X157.375 Y130.107 E1.58851
G1 X157.231 Y131.454 E.04247
G1 X156.899 Y132.606 E.03759
G1 X156.238 Y133.934 E.04651
G1 X155.647 Y134.743 E.03142
G1 X154.553 Y135.802 E.04774
G1 X153.281 Y136.605 E.04716
G1 X151.92 Y137.121 E.04565
G1 X150.773 Y137.335 E.03658
G1 X150 Y137.377 E.02426
G1 X99.893 Y137.375 E1.57107
G1 X98.546 Y137.231 E.04247
G1 X97.394 Y136.899 E.03759
G1 X96.066 Y136.238 E.04651
G1 X95.257 Y135.647 E.03142
G1 X94.198 Y134.553 E.04774
G1 X93.395 Y133.281 E.04716
G1 X92.879 Y131.92 E.04565
G1 X92.665 Y130.773 E.03658
G1 X92.623 Y130 E.02426
G1 X92.625 Y79.893 E1.57107
G1 X92.769 Y78.546 E.04247
G1 X93.101 Y77.394 E.03759
G1 X93.762 Y76.066 E.04651
G1 X94.317 Y75.305 E.02954
M204 S1000
; printing object 230912 lid 01.stl id:0 copy 0
;WIPE_START
G1 F8640
G1 X95.447 Y74.198 E-.36525
G1 X96.719 Y73.395 E-.34731
G1 X96.911 Y73.322 E-.04745
;WIPE_END
G1 E-.04 F2100
G1 Z.6 F720
G1 X96.849 Y77.859 F10800
G1 Z.2 F720
G1 E.8 F2100
M204 S800
;TYPE:Perimeter
;WIDTH:0.419999
G1 F1200
G1 X97.328 Y77.285 E.02342
G1 X97.909 Y76.815 E.02343
G1 X98.568 Y76.47 E.02332
G1 X99.274 Y76.26 E.02311
G1 X100.032 Y76.187 E.02387
G1 X149.966 Y76.187 E1.56563
G1 X150.762 Y76.267 E.02509
G1 X151.482 Y76.491 E.02363
G1 X152.141 Y76.849 E.02354
G1 X152.715 Y77.328 E.02342
G1 X153.186 Y77.91 E.02349
G1 X153.431 Y78.369 E.0163
G1 X153.639 Y78.875 E.01715
G1 X153.741 Y79.376 E.01605
G1 X153.813 Y80.027 E.02054
G1 X153.813 Y129.966 E1.56578
G1 X153.733 Y130.762 E.02508
G1 X153.509 Y131.482 E.02364
G1 X153.151 Y132.141 E.02354
G1 X152.672 Y132.715 E.02342
G1 X152.091 Y133.185 E.02343
G1 X151.432 Y133.53 E.02332
G1 X150.726 Y133.74 E.02311
G1 X149.968 Y133.813 E.02387
G1 X100.034 Y133.813 E1.56563
G1 X99.238 Y133.733 E.02508
G1 X98.518 Y133.509 E.02364
G1 X97.859 Y133.151 E.02354
G1 X97.285 Y132.672 E.02342
G1 X96.815 Y132.091 E.02343
G1 X96.47 Y131.432 E.02332
G1 X96.26 Y130.726 E.02311
G1 X96.187 Y129.968 E.02387
G1 X96.187 Y80.034 E1.56563
G1 X96.267 Y79.238 E.02508
G1 X96.491 Y78.518 E.02364
G1 X96.821 Y77.911 E.02166
M204 S1000
G1 X96.536 Y77.646 F10800
M204 S800
;TYPE:External perimeter
G1 F1200
G1 X97.062 Y77.015 E.02576
G1 X97.701 Y76.499 E.02576
G1 X98.425 Y76.119 E.02564
G1 X99.202 Y75.888 E.02541
G1 X100.014 Y75.81 E.02558
G1 X149.985 Y75.81 E1.56679
G1 X150.837 Y75.896 E.02687
G1 X151.629 Y76.141 E.02599
G1 X152.354 Y76.536 E.02588
G1 X152.985 Y77.062 E.02576
G1 X153.502 Y77.701 E.02578
G1 X153.821 Y78.3 E.02129
G1 X154.015 Y78.806 E.01698
G1 X154.162 Y79.569 E.02436
G1 X154.19 Y80.027 E.0144
G1 X154.19 Y129.985 E1.56638
G1 X154.104 Y130.837 E.02686
G1 X153.859 Y131.629 E.026
G1 X153.464 Y132.354 E.02588
G1 X152.938 Y132.985 E.02576
G1 X152.299 Y133.501 E.02576
G1 X151.575 Y133.881 E.02564
G1 X150.798 Y134.112 E.02541
G1 X149.986 Y134.19 E.02558
G1 X100.015 Y134.19 E1.56679
G1 X99.163 Y134.104 E.02686
G1 X98.371 Y133.859 E.026
G1 X97.646 Y133.464 E.02588
G1 X97.015 Y132.938 E.02576
G1 X96.499 Y132.299 E.02576
G1 X96.119 Y131.575 E.02564
G1 X95.888 Y130.798 E.02541
G1 X95.81 Y129.986 E.02558
G1 X95.81 Y80.015 E1.56679
G1 X95.896 Y79.163 E.02686
G1 X96.141 Y78.371 E.026
M73 P0 R70
G1 X96.507 Y77.698 E.024
M204 S1000
G1 X96.935 Y77.675 F10800
;WIPE_START
G1 F8640
G1 X97.062 Y77.015 E-.20329
G1 X97.701 Y76.499 E-.18968
G1 X98.425 Y76.119 E-.18883
G1 X99.165 Y75.899 E-.1782
;WIPE_END
G1 E-.04 F2100
G1 Z.6 F720
G1 X151.368 Y82.637 F10800
G1 Z.2 F720
M73 Q1 S71
G1 E.8 F2100
M204 S800
;TYPE:Perimeter
M73 P1 R70
G1 F1200
G1 X150.641 Y82.913 E.02436
G1 X150.05 Y82.985 E.01867
G1 X149.52 Y82.947 E.01667
G1 X148.945 Y82.792 E.01866
G1 X148.425 Y82.535 E.0182
G1 X147.926 Y82.147 E.01982
G1 X147.479 Y81.567 E.02296
G1 X147.318 Y81.304 E.00968
G1 X147.087 Y80.641 E.02199
G1 X147.015 Y80.05 E.01867
G1 X147.053 Y79.52 E.01667
G1 X147.208 Y78.945 E.01866
G1 X147.465 Y78.425 E.0182
G1 X147.853 Y77.926 E.01982
G1 X148.548 Y77.395 E.02742
G1 X149.359 Y77.088 E.02718
G1 X149.926 Y77.016 E.01793
G1 X150.477 Y77.053 E.01731
G1 X151.055 Y77.208 E.01875
G1 X151.575 Y77.465 E.0182
G1 X152.08 Y77.858 E.02006
G1 X152.492 Y78.393 E.02118
G1 X152.682 Y78.696 E.01122
G1 X152.913 Y79.359 E.02199
G1 X152.985 Y79.947 E.01858
G1 X152.947 Y80.48 E.01676
G1 X152.792 Y81.055 E.01867
G1 X152.535 Y81.575 E.0182
G1 X152.147 Y82.074 E.01982
G1 X151.424 Y82.615 E.02832
M204 S1000
G1 X151.229 Y82.3 F10800
M204 S800
;TYPE:External perimeter
G1 F1200
G1 X150.518 Y82.556 E.02372
G1 X150.015 Y82.609 E.01586
G1 X149.519 Y82.564 E.01561
G1 X149.035 Y82.425 E.01579
G1 X148.582 Y82.191 E.01598
G1 X148.164 Y81.854 E.01685
G1 X147.784 Y81.344 E.01993
G1 X147.649 Y81.108 E.00852
G1 X147.444 Y80.518 E.01961
G1 X147.391 Y80.015 E.01586
G1 X147.436 Y79.519 E.01561
G1 X147.584 Y79.014 E.01649
G1 X147.82 Y78.566 E.0159
G1 X148.146 Y78.164 E.01622
G1 X148.771 Y77.7 E.02439
G1 X149.482 Y77.444 E.02372
G1 X149.997 Y77.391 E.01623
G1 X150.481 Y77.436 E.01524
G1 X150.981 Y77.581 E.01631
G1 X151.43 Y77.817 E.01592
G1 X151.838 Y78.148 E.01647
G1 X152.326 Y78.82 E.02604
G1 X152.556 Y79.482 E.02199
G1 X152.609 Y79.982 E.01576
G1 X152.564 Y80.481 E.0157
G1 X152.416 Y80.986 E.01649
G1 X152.18 Y81.434 E.0159
G1 X151.854 Y81.836 E.01622
G1 X151.277 Y82.264 E.02251
M204 S1000
G1 X151.211 Y82.7 F10800
;WIPE_START
G1 F8640
G1 X150.518 Y82.556 E-.18797
G1 X150.015 Y82.609 E-.11676
G1 X149.519 Y82.564 E-.11498
G1 X149.035 Y82.425 E-.11627
G1 X148.582 Y82.191 E-.1177
G1 X148.224 Y81.902 E-.10631
;WIPE_END
G1 E-.04 F2100
G1 Z.6 F720
G1 X142.475 Y83.632 F10800
G1 Z.2 F720
G1 E.8 F2100
M204 S800
;TYPE:Perimeter
G1 F1200
G1 X142.635 Y83.759 E.00638
G1 X142.95 Y84.221 E.01755
G1 X143.035 Y84.426 E.00696
G1 X143.135 Y85.051 E.01985
G1 X143.044 Y85.549 E.01584
G1 X142.932 Y85.8 E.00863
G1 X142.642 Y86.235 E.01638
G1 X142.213 Y86.544 E.01659
G1 X141.93 Y86.684 E.00991
;WIDTH:0.448108
G1 X141.423 Y86.798 E.0175
G1 X141.355 Y86.798 E.00228
;WIDTH:0.445011
G1 X131.345 Y86.799 E.33469
;WIDTH:0.44438
G1 X130.801 Y86.694 E.0185
;WIDTH:0.419999
G1 X130.432 Y86.532 E.01262
G1 X129.944 Y86.091 E.02062
G1 X129.763 Y85.778 E.01136
G1 X129.595 Y85.316 E.0154
G1 X129.582 Y84.798 E.01625
G1 X129.657 Y84.485 E.01008
G1 X129.88 Y83.986 E.01715
G1 X130.182 Y83.66 E.01393
G1 X130.579 Y83.395 E.01496
;WIDTH:0.435054
G1 X131.138 Y83.235 E.01898
;WIDTH:0.44438
G1 X131.345 Y83.201 E.00699
;WIDTH:0.445011
G1 X141.355 Y83.2 E.33469
G1 X141.899 Y83.306 E.01853
;WIDTH:0.419999
G1 X142.268 Y83.468 E.01262
G1 X142.428 Y83.595 E.00641
M204 S1000
G1 X142.247 Y83.92 F10800
M204 S800
;TYPE:External perimeter
G1 F1200
G1 X142.394 Y84.068 E.00653
G1 X142.665 Y84.499 E.01597
G1 X142.76 Y84.997 E.01589
G1 X142.665 Y85.509 E.01634
G1 X142.378 Y85.961 E.01679
G1 X141.919 Y86.287 E.01764
G1 X141.421 Y86.405 E.01605
G1 X131.345 Y86.41 E.31594
G1 X130.82 Y86.306 E.01676
G1 X130.543 Y86.149 E.00999
G1 X130.174 Y85.777 E.01643
G1 X129.977 Y85.316 E.01572
G1 X129.959 Y84.789 E.01654
G1 X130.147 Y84.27 E.0173
G1 X130.392 Y83.974 E.01207
G1 X130.849 Y83.685 E.01695
G1 X131.344 Y83.59 E.01581
G1 X141.355 Y83.59 E.31389
G1 X141.88 Y83.694 E.01676
G1 X142.196 Y83.889 E.01166
M204 S1000
G1 X142.439 Y83.839 F10800
;WIPE_START
G1 F8640
G1 X142.394 Y84.068 E-.06166
G1 X142.665 Y84.499 E-.11759
G1 X142.76 Y84.997 E-.117
G1 X142.665 Y85.509 E-.12033
G1 X142.378 Y85.961 E-.12363
G1 X141.919 Y86.287 E-.12991
G1 X141.54 Y86.377 E-.08989
;WIPE_END
G1 E-.04 F2100
G1 Z.6 F720
G1 X142.472 Y87.63 F10800
G1 Z.2 F720
G1 E.8 F2100
M204 S800
;TYPE:Perimeter
G1 F1200
G1 X142.635 Y87.759 E.0065
G1 X142.95 Y88.221 E.01755
G1 X143.035 Y88.426 E.00696
G1 X143.132 Y88.924 E.0159
G1 X143.028 Y89.613 E.02185
G1 X142.694 Y90.166 E.02025
G1 X142.536 Y90.328 E.0071
G1 X142.061 Y90.64 E.0178
;WIDTH:0.440398
G1 X141.501 Y90.784 E.01913
;WIDTH:0.445011
G1 X141.355 Y90.798 E.00489
G1 X131.345 Y90.799 E.33469
;WIDTH:0.444381
G1 X130.96 Y90.735 E.013
;WIDTH:0.419999
G1 X130.489 Y90.557 E.0158
G1 X130.28 Y90.419 E.00784
G1 X129.892 Y90.034 E.01714
G1 X129.628 Y89.45 E.02008
G1 X129.585 Y89.236 E.00684
G1 X129.585 Y88.723 E.01609
G1 X129.796 Y88.132 E.0197
G1 X130.042 Y87.784 E.01334
G1 X130.487 Y87.456 E.01735
G1 X130.775 Y87.315 E.01006
;WIDTH:0.444381
G1 X131.345 Y87.201 E.01939
;WIDTH:0.445011
G1 X141.355 Y87.2 E.33469
G1 X141.899 Y87.306 E.01853
;WIDTH:0.419999
G1 X142.268 Y87.468 E.01262
G1 X142.425 Y87.593 E.00629
M204 S1000
G1 X142.245 Y87.918 F10800
M204 S800
;TYPE:External perimeter
G1 F1200
G1 X142.394 Y88.068 E.00665
G1 X142.664 Y88.493 E.01579
G1 X142.76 Y89 E.01616
G1 X142.668 Y89.5 E.01597
G1 X142.378 Y89.961 E.01707
G1 X141.924 Y90.285 E.01747
G1 X141.421 Y90.405 E.01622
G1 X131.345 Y90.41 E.31595
G1 X131.094 Y90.382 E.00791
G1 X130.62 Y90.203 E.0159
G1 X130.207 Y89.821 E.01763
G1 X129.977 Y89.306 E.01771
G1 X129.96 Y88.781 E.01644
G1 X130.147 Y88.27 E.01707
G1 X130.392 Y87.974 E.01206
G1 X130.849 Y87.685 E.01694
G1 X131.344 Y87.59 E.01581
G1 X141.355 Y87.59 E.31389
G1 X141.88 Y87.694 E.01676
G1 X142.193 Y87.886 E.01154
M204 S1000
G1 X142.44 Y87.835 F10800
;WIPE_START
G1 F8640
G1 X142.394 Y88.068 E-.06249
G1 X142.664 Y88.493 E-.11626
G1 X142.76 Y89 E-.11902
G1 X142.668 Y89.5 E-.11757
G1 X142.378 Y89.961 E-.12574
G1 X141.924 Y90.285 E-.12864
G1 X141.544 Y90.375 E-.09027
;WIPE_END
G1 E-.04 F2100
G1 Z.6 F720
G1 X142.475 Y91.632 F10800
G1 Z.2 F720
G1 E.8 F2100
M204 S800
;TYPE:Perimeter
G1 F1200
G1 X142.635 Y91.759 E.00638
G1 X142.95 Y92.221 E.01755
G1 X143.035 Y92.426 E.00696
G1 X143.136 Y92.961 E.01707
G1 X143.044 Y93.549 E.01865
G1 X142.932 Y93.8 E.00863
G1 X142.642 Y94.235 E.01638
G1 X142.212 Y94.546 E.01665
G1 X141.935 Y94.682 E.00966
;WIDTH:0.448108
G1 X141.423 Y94.798 E.0177
G1 X141.355 Y94.798 E.00228
;WIDTH:0.445011
G1 X131.345 Y94.799 E.33469
;WIDTH:0.444381
G1 X130.96 Y94.735 E.013
;WIDTH:0.419999
G1 X130.489 Y94.557 E.0158
G1 X130.28 Y94.419 E.00784
G1 X129.892 Y94.034 E.01714
G1 X129.628 Y93.45 E.02008
G1 X129.585 Y93.236 E.00684
G1 X129.586 Y92.715 E.01636
G1 X129.796 Y92.132 E.01943
G1 X130.042 Y91.784 E.01334
G1 X130.166 Y91.671 E.00526
G1 X130.579 Y91.395 E.01558
;WIDTH:0.435054
G1 X131.138 Y91.235 E.01898
;WIDTH:0.444381
G1 X131.345 Y91.201 E.00699
;WIDTH:0.445011
G1 X141.355 Y91.2 E.33469
G1 X141.899 Y91.306 E.01853
;WIDTH:0.419999
G1 X142.268 Y91.468 E.01262
G1 X142.428 Y91.595 E.00641
M204 S1000
;WIPE_START
G1 F8640
G1 X142.635 Y91.759 E-.06087
G1 X142.95 Y92.221 E-.12925
G1 X143.035 Y92.426 E-.05128
G1 X143.136 Y92.961 E-.12567
G1 X143.044 Y93.549 E-.13731
G1 X142.932 Y93.8 E-.06356
G1 X142.642 Y94.235 E-.12062
G1 X142.392 Y94.416 E-.07143
;WIPE_END
G1 E-.04 F2100
G1 Z.6 F720
G1 X142.378 Y93.961 F10800
G1 Z.2 F720
G1 E.8 F2100
M204 S800
;TYPE:External perimeter
G1 F1200
G1 X141.924 Y94.285 E.01747
G1 X141.355 Y94.409 E.01826
G1 X131.345 Y94.41 E.31388
G1 X131.094 Y94.382 E.00791
G1 X130.62 Y94.203 E.0159
G1 X130.207 Y93.821 E.01763
G1 X129.977 Y93.306 E.01771
G1 X129.96 Y92.781 E.01644
G1 X130.147 Y92.27 E.01707
G1 X130.376 Y91.985 E.01147
G1 X130.849 Y91.685 E.01757
G1 X131.344 Y91.59 E.01581
G1 X141.355 Y91.59 E.31389
G1 X141.88 Y91.694 E.01676
G1 X142.247 Y91.92 E.01354
G1 X142.394 Y92.068 E.00653
G1 X142.665 Y92.499 E.01597
G1 X142.76 Y93 E.01597
G1 X142.67 Y93.493 E.01572
G1 X142.41 Y93.91 E.01543
M204 S1000
G1 X142.491 Y94.345 F10800
;WIPE_START
G1 F8640
G1 X141.924 Y94.285 E-.14155
G1 X141.355 Y94.409 E-.1345
G1 X139.259 Y94.409 E-.48395
;WIPE_END
G1 E-.04 F2100
G1 Z.6 F720
G1 X142.475 Y95.632 F10800
G1 Z.2 F720
G1 E.8 F2100
M204 S800
;TYPE:Perimeter
G1 F1200
G1 X142.635 Y95.759 E.00638
G1 X142.95 Y96.221 E.01755
G1 X143.035 Y96.426 E.00696
G1 X143.136 Y96.964 E.01716
G1 X143.029 Y97.587 E.01984
G1 X142.945 Y97.788 E.00683
G1 X142.642 Y98.235 E.01692
G1 X142.213 Y98.544 E.01658
G1 X141.93 Y98.684 E.00991
;WIDTH:0.448108
G1 X141.423 Y98.798 E.0175
G1 X141.355 Y98.798 E.00228
;WIDTH:0.445011
G1 X131.345 Y98.799 E.33469
;WIDTH:0.444381
G1 X130.96 Y98.735 E.013
;WIDTH:0.419999
G1 X130.489 Y98.557 E.0158
G1 X130.278 Y98.416 E.00796
G1 X129.892 Y98.034 E.01702
G1 X129.628 Y97.45 E.02008
G1 X129.594 Y97.331 E.00389
G1 X129.583 Y96.783 E.01717
G1 X129.655 Y96.489 E.0095
G1 X129.88 Y95.986 E.01728
G1 X130.182 Y95.66 E.01393
G1 X130.579 Y95.395 E.01496
;WIDTH:0.435054
G1 X131.138 Y95.235 E.01898
;WIDTH:0.444381
G1 X131.345 Y95.201 E.00699
;WIDTH:0.445011
G1 X141.355 Y95.2 E.33469
G1 X141.899 Y95.306 E.01853
;WIDTH:0.419999
G1 X142.268 Y95.468 E.01262
G1 X142.428 Y95.595 E.00641
M204 S1000
;WIPE_START
G1 F8640
G1 X142.635 Y95.759 E-.06087
G1 X142.95 Y96.221 E-.12925
G1 X143.035 Y96.426 E-.05128
G1 X143.136 Y96.964 E-.12635
G1 X143.029 Y97.587 E-.14607
G1 X142.945 Y97.788 E-.05026
G1 X142.642 Y98.235 E-.12458
G1 X142.391 Y98.415 E-.07133
;WIPE_END
G1 E-.04 F2100
G1 Z.6 F720
G1 X142.377 Y97.963 F10800
G1 Z.2 F720
G1 E.8 F2100
M204 S800
;TYPE:External perimeter
G1 F1200
G1 X141.919 Y98.287 E.01757
G1 X141.355 Y98.409 E.01809
G1 X131.345 Y98.41 E.31388
G1 X131.094 Y98.382 E.00791
G1 X130.622 Y98.204 E.0158
G1 X130.207 Y97.821 E.01771
G1 X129.965 Y97.266 E.01899
G1 X129.961 Y96.761 E.01583
G1 X130.147 Y96.27 E.01646
G1 X130.392 Y95.974 E.01206
G1 X130.849 Y95.685 E.01695
G1 X131.344 Y95.59 E.01581
G1 X141.355 Y95.59 E.31389
G1 X141.88 Y95.694 E.01676
G1 X142.247 Y95.92 E.01354
G1 X142.394 Y96.068 E.00653
G1 X142.665 Y96.499 E.01597
G1 X142.76 Y97 E.01597
G1 X142.659 Y97.512 E.01637
G1 X142.408 Y97.912 E.01481
M204 S1000
G1 X142.489 Y98.347 F10800
;WIPE_START
G1 F8640
G1 X141.919 Y98.287 E-.1423
G1 X141.355 Y98.409 E-.13321
G1 X139.257 Y98.409 E-.48449
;WIPE_END
G1 E-.04 F2100
G1 Z.6 F720
G1 X142.022 Y103.36 F10800
G1 Z.2 F720
G1 E.8 F2100
M204 S800
;TYPE:Perimeter
G1 F1200
G1 X142.268 Y103.468 E.0084
G1 X142.635 Y103.759 E.01467
G1 X142.95 Y104.221 E.01755
G1 X143.035 Y104.426 E.00696
G1 X143.136 Y104.964 E.01716
G1 X143.029 Y105.587 E.01984
G1 X142.945 Y105.788 E.00683
G1 X142.642 Y106.235 E.01692
G1 X142.213 Y106.544 E.01658
G1 X141.93 Y106.684 E.00991
;WIDTH:0.448107
G1 X141.423 Y106.798 E.0175
G1 X141.355 Y106.798 E.00228
;WIDTH:0.445011
G1 X131.345 Y106.799 E.33469
;WIDTH:0.444382
G1 X130.96 Y106.735 E.013
;WIDTH:0.419999
G1 X130.489 Y106.557 E.0158
G1 X130.28 Y106.419 E.00784
G1 X129.892 Y106.034 E.01714
G1 X129.628 Y105.45 E.02008
G1 X129.588 Y105.291 E.00515
G1 X129.583 Y104.783 E.01591
G1 X129.655 Y104.489 E.0095
G1 X129.88 Y103.986 E.01728
