; generated by PrusaSlicer 2.5.2+win64 on 2023-09-13 at 08:27:24 UTC

; 

; external perimeters extrusion width = 0.45mm
; perimeters extrusion width = 0.45mm
; infill extrusion width = 0.45mm
; solid infill extrusion width = 0.45mm
; top infill extrusion width = 0.40mm
; first layer extrusion width = 0.42mm

M73 P0 R68
M73 Q0 S69
M107
;TYPE:Custom
M862.3 P "MK3" ; printer model check
M862.1 P0.4 ; nozzle diameter check
M115 U3.10.0 ; tell printer latest fw version
G90 ; use absolute coordinates
M83 ; extruder relative mode
M104 S215 ; set extruder temp
M140 S60 ; set bed temp
M190 S60 ; wait for bed temp
M109 S215 ; wait for extruder temp
G28 W ; home all without mesh bed level
G80 ; mesh bed leveling
G1 Z0.2 F720
G1 Y-3 F1000 ; go outside print area
G92 E0
G1 X60 E9 F1000 ; intro line
G1 X100 E12.5 F1000 ; intro line
G92 E0
M221 S95

; Don't change E values below. Excessive value can damage the printer.
M907 E430 ; set extruder motor current
G21 ; set units to millimeters
G90 ; use absolute coordinates
M83 ; use relative distances for extrusion
M900 K0.05 ; Filament gcode LA 1.5
M900 K30 ; Filament gcode LA 1.0
M107
;LAYER_CHANGE
;Z:0.2
;HEIGHT:0.2
;BEFORE_LAYER_CHANGE
G92 E0.0
;0.2


M73 Q0 S68
G1 E-.8 F2100
G1 Z.4 F720
;AFTER_LAYER_CHANGE
;0.2
G1 X94.353 Y75.257 F10800
G1 Z.2 F720
G1 E.8 F2100
M204 S800
;TYPE:Skirt/Brim
;WIDTH:0.42
G1 F1200
G1 X95.447 Y74.198 E.04774
G1 X96.719 Y73.395 E.04716
G1 X98.08 Y72.879 E.04565
G1 X99.444 Y72.646 E.04337
G1 X150.053 Y72.624 E1.58681
G1 X151.398 Y72.757 E.04237
G1 X152.661 Y73.12 E.0412
G1 X153.986 Y73.793 E.04659
G1 X154.985 Y74.562 E.03954
G1 X155.922 Y75.603 E.04391
G1 X156.58 Y76.665 E.03918
G1 X157.107 Y78.025 E.04574
G1 X157.351 Y79.391 E.04349
G1 X157.375 Y130.107 E1.59017
G1 X157.231 Y131.454 E.04247
G1 X156.899 Y132.606 E.03759
G1 X156.238 Y133.934 E.04651
G1 X155.647 Y134.743 E.03142
G1 X154.553 Y135.802 E.04774
G1 X153.281 Y136.605 E.04716
G1 X151.92 Y137.121 E.04565
G1 X150.773 Y137.335 E.03658
G1 X150 Y137.377 E.02426
G1 X99.893 Y137.375 E1.57107
G1 X98.546 Y137.231 E.04247
G1 X97.394 Y136.899 E.03759
G1 X96.066 Y136.238 E.04651
G1 X95.257 Y135.647 E.03142
G1 X94.198 Y134.553 E.04774
G1 X93.395 Y133.281 E.04716
G1 X92.879 Y131.92 E.04565
G1 X92.665 Y130.773 E.03658
G1 X92.623 Y130 E.02426
G1 X92.625 Y79.893 E1.57107
G1 X92.769 Y78.546 E.04247
G1 X93.101 Y77.394 E.03759
G1 X93.762 Y76.066 E.04651
G1 X94.317 Y75.305 E.02954
M204 S1000
; printing object 230912 lid 02.stl id:0 copy 0
;WIPE_START
G1 F8640
G1 X95.447 Y74.198 E-.36525
G1 X96.719 Y73.395 E-.34731
G1 X96.911 Y73.322 E-.04744
;WIPE_END
G1 E-.04 F2100
G1 Z.6 F720
G1 X96.849 Y77.859 F10800
G1 Z.2 F720
G1 E.8 F2100
M204 S800
;TYPE:Perimeter
;WIDTH:0.419999
G1 F1200
G1 X97.328 Y77.285 E.02342
G1 X97.909 Y76.815 E.02343
G1 X98.568 Y76.47 E.02332
G1 X99.274 Y76.26 E.02311
G1 X100.032 Y76.187 E.02387
G1 X149.965 Y76.187 E1.56561
G1 X150.78 Y76.271 E.02569
G1 X151.503 Y76.499 E.02375
G1 X152.12 Y76.839 E.0221
G1 X152.746 Y77.364 E.02562
G1 X153.202 Y77.943 E.0231
G1 X153.539 Y78.598 E.02309
G1 X153.748 Y79.365 E.02492
G1 X153.813 Y80.052 E.02166
G1 X153.813 Y129.966 E1.56499
G1 X153.733 Y130.762 E.02508
G1 X153.509 Y131.482 E.02364
G1 X153.151 Y132.141 E.02354
G1 X152.672 Y132.715 E.02342
G1 X152.091 Y133.185 E.02343
G1 X151.432 Y133.53 E.02332
G1 X150.726 Y133.74 E.02311
G1 X149.968 Y133.813 E.02387
G1 X100.034 Y133.813 E1.56563
G1 X99.238 Y133.733 E.02508
G1 X98.518 Y133.509 E.02364
G1 X97.859 Y133.151 E.02354
G1 X97.285 Y132.672 E.02342
G1 X96.815 Y132.091 E.02343
G1 X96.47 Y131.432 E.02332
G1 X96.26 Y130.726 E.02311
G1 X96.187 Y129.968 E.02387
G1 X96.187 Y80.034 E1.56563
G1 X96.267 Y79.238 E.02508
G1 X96.491 Y78.518 E.02364
G1 X96.821 Y77.911 E.02166
M204 S1000
G1 X96.536 Y77.646 F10800
M204 S800
;TYPE:External perimeter
G1 F1200
G1 X97.062 Y77.015 E.02576
G1 X97.701 Y76.499 E.02576
G1 X98.425 Y76.119 E.02564
G1 X99.202 Y75.888 E.02541
G1 X100.014 Y75.81 E.02558
G1 X149.984 Y75.81 E1.56678
G1 X150.857 Y75.9 E.0275
G1 X151.652 Y76.151 E.02613
G1 X152.37 Y76.546 E.02571
G1 X152.932 Y77.018 E.023
G1 X153.218 Y77.349 E.01371
G1 X153.536 Y77.767 E.01649
G1 X153.9 Y78.49 E.02537
G1 X154.123 Y79.328 E.02721
G1 X154.19 Y80.052 E.0228
G1 X154.19 Y129.985 E1.56559
G1 X154.104 Y130.837 E.02686
G1 X153.859 Y131.629 E.026
G1 X153.464 Y132.354 E.02588
M73 P0 R67
G1 X152.938 Y132.985 E.02576
G1 X152.299 Y133.501 E.02576
G1 X151.575 Y133.881 E.02564
G1 X150.798 Y134.112 E.02541
G1 X149.986 Y134.19 E.02558
G1 X100.015 Y134.19 E1.56679
G1 X99.163 Y134.104 E.02686
G1 X98.371 Y133.859 E.026
G1 X97.646 Y133.464 E.02588
G1 X97.015 Y132.938 E.02576
G1 X96.499 Y132.299 E.02576
G1 X96.119 Y131.575 E.02564
G1 X95.888 Y130.798 E.02541
G1 X95.81 Y129.986 E.02558
G1 X95.81 Y80.015 E1.56679
G1 X95.896 Y79.163 E.02686
M73 P1 R67
M73 Q1 S68
G1 X96.141 Y78.371 E.026
G1 X96.507 Y77.698 E.024
M204 S1000
G1 X96.935 Y77.675 F10800
;WIPE_START
G1 F8640
G1 X97.062 Y77.015 E-.20329
G1 X97.701 Y76.499 E-.18968
G1 X98.425 Y76.119 E-.18883
G1 X99.165 Y75.899 E-.1782
;WIPE_END
G1 E-.04 F2100
G1 Z.6 F720
G1 X152.312 Y81.875 F10800
G1 Z.2 F720
G1 E.8 F2100
M204 S800
;TYPE:Perimeter
G1 F1200
G1 X151.877 Y82.32 E.0195
G1 X151.298 Y82.687 E.02151
G1 X150.672 Y82.908 E.02082
G1 X150.055 Y82.984 E.01951
G1 X149.409 Y82.926 E.02031
G1 X148.882 Y82.758 E.01737
G1 X148.632 Y82.65 E.00851
G1 X148.177 Y82.363 E.01689
G1 X147.805 Y82.005 E.01617
G1 X147.6 Y81.774 E.00969
G1 X147.313 Y81.298 E.01743
G1 X147.093 Y80.675 E.02072
G1 X147.022 Y80.12 E.01754
G1 X147.06 Y79.538 E.0183
G1 X147.103 Y79.284 E.00808
G1 X147.283 Y78.766 E.01718
G1 X147.637 Y78.177 E.02156
G1 X148.123 Y77.68 E.02177
G1 X148.702 Y77.313 E.02151
G1 X149.325 Y77.093 E.02073
G1 X149.91 Y77.017 E.0185
G1 X150.589 Y77.075 E.02137
G1 X151.203 Y77.272 E.02022
G1 X151.696 Y77.557 E.01785
G1 X151.925 Y77.72 E.00881
G1 X152.32 Y78.123 E.01768
G1 X152.687 Y78.702 E.02151
G1 X152.908 Y79.328 E.02082
G1 X152.984 Y79.942 E.01941
G1 X152.926 Y80.59 E.0204
G1 X152.717 Y81.234 E.02121
G1 X152.354 Y81.832 E.02195
M204 S1000
G1 X152.044 Y81.622 F10800
M204 S800
;TYPE:External perimeter
G1 F1200
G1 X151.614 Y82.05 E.01905
G1 X151.103 Y82.364 E.01879
G1 X150.554 Y82.55 E.01816
G1 X150.016 Y82.609 E.01699
G1 X149.451 Y82.551 E.01781
G1 X148.89 Y82.361 E.01857
G1 X148.381 Y82.046 E.01877
G1 X147.95 Y81.614 E.01915
G1 X147.636 Y81.103 E.01879
G1 X147.451 Y80.557 E.01807
G1 X147.391 Y80.016 E.01708
G1 X147.45 Y79.448 E.0179
G1 X147.639 Y78.89 E.01848
G1 X147.956 Y78.378 E.01887
G1 X148.386 Y77.95 E.01905
G1 X148.897 Y77.636 E.01879
G1 X149.443 Y77.451 E.01809
G1 X149.951 Y77.392 E.01603
G1 X150.55 Y77.45 E.01888
G1 X151.08 Y77.628 E.01751
G1 X151.622 Y77.956 E.01986
G1 X152.05 Y78.386 E.01905
G1 X152.364 Y78.897 E.01879
G1 X152.55 Y79.446 E.01816
G1 X152.609 Y79.981 E.01689
G1 X152.551 Y80.549 E.0179
G1 X152.361 Y81.11 E.01858
G1 X152.076 Y81.571 E.01699
M204 S1000
G1 X152.191 Y81.994 F10800
;WIPE_START
G1 F8640
G1 X151.614 Y82.05 E-.15377
G1 X151.103 Y82.364 E-.13835
G1 X150.554 Y82.55 E-.13374
G1 X150.016 Y82.609 E-.12509
G1 X149.451 Y82.551 E-.13116
G1 X149.131 Y82.443 E-.07789
;WIPE_END
G1 E-.04 F2100
G1 Z.6 F720
G1 X141.313 Y80.244 F10800
G1 Z.2 F720
G1 E.8 F2100
M204 S800
;TYPE:Perimeter
G1 F1200
G1 X141.562 Y80.662 E.01527
G1 X141.836 Y81.23 E.01975
G1 X142.03 Y81.771 E.01804
G1 X142.17 Y82.33 E.01805
G1 X142.259 Y82.931 E.01906
G1 X142.287 Y83.475 E.01709
G1 X142.256 Y84.1 E.0196
G1 X142.167 Y84.686 E.01861
G1 X142.02 Y85.259 E.01854
G1 X141.817 Y85.815 E.01854
G1 X141.591 Y86.283 E.01632
G1 X141.261 Y86.836 E.02019
G1 X140.915 Y87.296 E.01804
G1 X140.526 Y87.72 E.01804
G1 X140.098 Y88.104 E.01804
G1 X139.634 Y88.445 E.01804
G1 X139.14 Y88.74 E.01804
G1 X138.62 Y88.986 E.01804
G1 X138.079 Y89.18 E.01804
G1 X137.52 Y89.32 E.01805
G1 X136.919 Y89.409 E.01906
G1 X136.375 Y89.437 E.01709
G1 X135.779 Y89.409 E.0187
G1 X135.165 Y89.317 E.01946
G1 X134.591 Y89.17 E.0186
G1 X134.035 Y88.967 E.01854
G1 X133.505 Y88.711 E.01845
G1 X133.014 Y88.411 E.01806
G1 X132.554 Y88.065 E.01804
G1 X132.13 Y87.676 E.01804
G1 X131.746 Y87.248 E.01804
G1 X131.405 Y86.784 E.01804
G1 X131.11 Y86.29 E.01804
G1 X130.864 Y85.77 E.01804
G1 X130.67 Y85.229 E.01804
G1 X130.535 Y84.69 E.01743
G1 X130.441 Y84.069 E.01967
G1 X130.413 Y83.525 E.01709
G1 X130.444 Y82.9 E.0196
G1 X130.533 Y82.314 E.01861
G1 X130.68 Y81.741 E.01854
G1 X130.883 Y81.185 E.01854
G1 X131.139 Y80.655 E.01845
G1 X131.439 Y80.164 E.01806
G1 X131.785 Y79.704 E.01804
G1 X132.174 Y79.28 E.01804
G1 X132.602 Y78.896 E.01804
G1 X133.066 Y78.555 E.01804
G1 X133.56 Y78.26 E.01804
G1 X134.08 Y78.014 E.01804
G1 X134.621 Y77.82 E.01804
G1 X135.18 Y77.68 E.01805
G1 X135.781 Y77.591 E.01906
G1 X136.325 Y77.563 E.01709
G1 X136.95 Y77.594 E.0196
G1 X137.536 Y77.683 E.01861
G1 X138.109 Y77.83 E.01854
G1 X138.665 Y78.033 E.01854
G1 X139.195 Y78.289 E.01845
G1 X139.686 Y78.589 E.01806
G1 X140.146 Y78.935 E.01804
G1 X140.57 Y79.324 E.01804
G1 X140.954 Y79.752 E.01804
G1 X141.28 Y80.194 E.0172
M204 S1000
G1 X140.991 Y80.438 F10800
M204 S800
;TYPE:External perimeter
G1 F1200
G1 X141.265 Y80.901 E.01689
G1 X141.494 Y81.389 E.01689
G1 X141.674 Y81.897 E.01689
G1 X141.804 Y82.42 E.0169
G1 X141.886 Y82.984 E.01788
G1 X141.91 Y83.492 E.01594
G1 X141.88 Y84.08 E.01844
G1 X141.794 Y84.628 E.0174
G1 X141.655 Y85.164 E.01737
G1 X141.463 Y85.684 E.01737
G1 X141.222 Y86.179 E.01728
G1 X140.94 Y86.638 E.0169
G1 X140.614 Y87.068 E.01689
G1 X140.249 Y87.464 E.01689
G1 X139.847 Y87.823 E.01689
G1 X139.412 Y88.141 E.01689
G1 X138.949 Y88.415 E.01689
G1 X138.461 Y88.644 E.01689
G1 X137.953 Y88.824 E.01689
G1 X137.43 Y88.954 E.0169
G1 X136.866 Y89.036 E.01788
G1 X136.34 Y89.06 E.01651
G1 X135.798 Y89.032 E.01699
G1 X135.223 Y88.945 E.01826
G1 X134.686 Y88.805 E.01739
G1 X134.166 Y88.613 E.01737
G1 X133.671 Y88.372 E.01728
G1 X133.212 Y88.09 E.0169
G1 X132.782 Y87.764 E.01689
G1 X132.386 Y87.399 E.01689
G1 X132.027 Y86.997 E.01689
G1 X131.709 Y86.562 E.01689
G1 X131.435 Y86.099 E.01689
G1 X131.206 Y85.611 E.01689
G1 X131.026 Y85.103 E.01689
G1 X130.901 Y84.599 E.01628
G1 X130.814 Y84.016 E.0185
G1 X130.79 Y83.508 E.01594
G1 X130.82 Y82.92 E.01844
G1 X130.906 Y82.372 E.0174
G1 X131.045 Y81.836 E.01737
G1 X131.237 Y81.316 E.01737
G1 X131.478 Y80.821 E.01728
G1 X131.76 Y80.362 E.0169
G1 X132.086 Y79.932 E.01689
G1 X132.451 Y79.536 E.01689
G1 X132.853 Y79.177 E.01689
G1 X133.288 Y78.859 E.01689
G1 X133.751 Y78.585 E.01689
G1 X134.239 Y78.356 E.01689
G1 X134.747 Y78.176 E.01689
G1 X135.27 Y78.046 E.0169
G1 X135.834 Y77.964 E.01788
G1 X136.342 Y77.94 E.01594
G1 X136.93 Y77.97 E.01844
G1 X137.478 Y78.056 E.0174
G1 X138.014 Y78.195 E.01737
G1 X138.534 Y78.387 E.01737
G1 X139.029 Y78.628 E.01728
G1 X139.488 Y78.91 E.0169
G1 X139.918 Y79.236 E.01689
G1 X140.314 Y79.601 E.01689
G1 X140.673 Y80.003 E.01689
G1 X140.955 Y80.389 E.01501
M204 S1000
G1 X141.39 Y80.414 F10800
;WIPE_START
G1 F8640
G1 X141.265 Y80.901 E-.1382
G1 X141.494 Y81.389 E-.1244
G1 X141.674 Y81.897 E-.12441
G1 X141.804 Y82.42 E-.12448
G1 X141.886 Y82.984 E-.13165
G1 X141.91 Y83.49 E-.11685
;WIPE_END
G1 E-.04 F2100
G1 Z.6 F720
G1 X130.327 Y91.56 F10800
G1 Z.2 F720
G1 E.8 F2100
M204 S800
;TYPE:Perimeter
G1 F1200
G1 X130.432 Y91.468 E.00437
G1 X130.846 Y91.298 E.01402
G1 X131.345 Y91.213 E.01587
G1 X141.356 Y91.213 E.31389
G1 X141.924 Y91.315 E.01812
G1 X142.339 Y91.511 E.01437
G1 X142.765 Y91.926 E.01867
G1 X142.992 Y92.299 E.01367
G1 X143.128 Y92.896 E.01919
G1 X143.127 Y93.108 E.00666
G1 X143.029 Y93.603 E.01582
G1 X142.816 Y94.014 E.01452
G1 X142.481 Y94.374 E.01541
G1 X141.917 Y94.69 E.02026
;WIDTH:0.448016
G1 X141.422 Y94.798 E.01708
G1 X141.356 Y94.798 E.00223
;WIDTH:0.444939
G1 X131.345 Y94.799 E.33465
;WIDTH:0.444381
G1 X130.797 Y94.689 E.01865
;WIDTH:0.419999
G1 X130.435 Y94.532 E.01238
G1 X130.031 Y94.205 E.01629
G1 X129.796 Y93.868 E.01288
G1 X129.613 Y93.402 E.01572
G1 X129.585 Y92.796 E.01903
G1 X129.628 Y92.55 E.00783
G1 X129.825 Y92.076 E.01608
G1 X130.069 Y91.786 E.01188
G1 X130.282 Y91.6 E.00887
M204 S1000
G1 X130.558 Y91.837 F10800
M204 S800
;TYPE:External perimeter
G1 F1200
G1 X130.916 Y91.668 E.01242
G1 X131.493 Y91.59 E.01828
G1 X141.356 Y91.59 E.30922
G1 X141.851 Y91.685 E.01581
G1 X142.171 Y91.857 E.0114
G1 X142.526 Y92.222 E.01596
G1 X142.673 Y92.521 E.01044
G1 X142.757 Y93.033 E.01626
G1 X142.657 Y93.531 E.01594
G1 X142.422 Y93.899 E.01367
G1 X142.28 Y94.055 E.00662
G1 X141.835 Y94.322 E.01627
G1 X141.356 Y94.409 E.01528
G1 X131.344 Y94.41 E.3139
G1 X130.849 Y94.315 E.0158
G1 X130.497 Y94.11 E.01279
G1 X130.174 Y93.777 E.01454
G1 X129.973 Y93.289 E.01656
G1 X129.962 Y92.765 E.01641
G1 X130.165 Y92.242 E.01761
G1 X130.516 Y91.88 E.0158
M204 S1000
G1 X130.516 Y91.443 F10800
;WIPE_START
G1 F8640
G1 X130.916 Y91.668 E-.10455
G1 X131.493 Y91.59 E-.13459
G1 X133.749 Y91.59 E-.52085
;WIPE_END
G1 E-.04 F2100
G1 Z.6 F720
G1 X130.173 Y95.67 F10800
G1 Z.2 F720
G1 E.8 F2100
M204 S800
;TYPE:Perimeter
G1 F1200
G1 X130.592 Y95.39 E.01581
G1 X130.795 Y95.308 E.00685
;WIDTH:0.447354
G1 X131.345 Y95.201 E.01884
;WIDTH:0.444939
G1 X141.356 Y95.2 E.33465
G1 X141.904 Y95.311 E.0187
;WIDTH:0.419999
G1 X142.303 Y95.49 E.01371
G1 X142.676 Y95.835 E.01593
G1 X142.882 Y96.082 E.01007
G1 X143.044 Y96.451 E.01264
G1 X143.136 Y96.967 E.01642
G1 X143.035 Y97.573 E.01928
G1 X142.985 Y97.718 E.00481
G1 X142.816 Y98.014 E.01069
G1 X142.481 Y98.374 E.01541
G1 X141.917 Y98.69 E.02026
;WIDTH:0.448015
G1 X141.422 Y98.798 E.01708
G1 X141.356 Y98.798 E.00223
;WIDTH:0.444939
G1 X131.345 Y98.799 E.33465
;WIDTH:0.444381
G1 X130.803 Y98.691 E.01844
;WIDTH:0.419999
G1 X130.433 Y98.532 E.01262
G1 X130.023 Y98.195 E.01664
G1 X129.796 Y97.868 E.01247
G1 X129.612 Y97.4 E.01576
G1 X129.585 Y96.763 E.02
G1 X129.628 Y96.551 E.00678
G1 X129.837 Y96.05 E.01702
G1 X130.123 Y95.703 E.01411
M204 S1000
G1 X130.388 Y95.973 F10800
M204 S800
;TYPE:External perimeter
G1 F1200
G1 X130.811 Y95.698 E.01579
G1 X131.345 Y95.59 E.01708
G1 X141.356 Y95.59 E.31389
G1 X141.851 Y95.685 E.01581
G1 X142.171 Y95.857 E.0114
G1 X142.523 Y96.219 E.01583
G1 X142.673 Y96.521 E.01058
G1 X142.757 Y97.033 E.01626
G1 X142.649 Y97.549 E.01653
G1 X142.422 Y97.899 E.01307
G1 X142.28 Y98.055 E.00662
G1 X141.835 Y98.322 E.01627
G1 X141.356 Y98.409 E.01528
G1 X131.344 Y98.41 E.3139
G1 X130.849 Y98.315 E.0158
G1 X130.577 Y98.176 E.00959
G1 X130.306 Y97.946 E.01114
G1 X130.147 Y97.73 E.00842
G1 X129.965 Y97.263 E.01572
G1 X129.962 Y96.756 E.01588
G1 X130.161 Y96.246 E.01716
G1 X130.35 Y96.019 E.00927
M204 S1000
G1 X130.302 Y95.582 F10800
;WIPE_START
G1 F8640
G1 X130.811 Y95.698 E-.12961
G1 X131.345 Y95.59 E-.12579
G1 X133.53 Y95.59 E-.5046
;WIPE_END
G1 E-.04 F2100
G1 Z.6 F720
G1 X129.19 Y108.074 F10800
G1 Z.2 F720
G1 E.8 F2100
M204 S800
;TYPE:Perimeter
G1 F1200
G1 X129.572 Y107.8 E.01474
G1 X129.776 Y107.713 E.00693
G1 X130.301 Y107.613 E.01678
G1 X142.383 Y107.613 E.37882
G1 X142.905 Y107.706 E.01662
G1 X143.103 Y107.788 E.00672
G1 X143.574 Y108.117 E.01801
G1 X143.87 Y108.542 E.01625
G1 X143.957 Y108.746 E.00693
G1 X144.057 Y109.288 E.01731
G1 X144.057 Y119.931 E.33368
G1 X143.964 Y120.455 E.01669
G1 X143.882 Y120.655 E.00679
G1 X143.556 Y121.121 E.01781
G1 X143.132 Y121.418 E.01625
G1 X142.928 Y121.505 E.00695
G1 X142.436 Y121.605 E.01574
G1 X141.625 Y121.607 E.02542
G1 X130.319 Y121.607 E.35449
G1 X129.795 Y121.514 E.01669
G1 X129.595 Y121.432 E.00679
G1 X129.162 Y121.139 E.01639
G1 X128.832 Y120.682 E.01767
G1 X128.745 Y120.478 E.00695
G1 X128.643 Y119.932 E.01741
G1 X128.643 Y109.28 E.33399
G1 X128.736 Y108.765 E.01641
G1 X128.818 Y108.567 E.00672
G1 X129.142 Y108.109 E.01758
M204 S1000
G1 X129.416 Y108.362 F10800
M204 S800
;TYPE:External perimeter
G1 F1200
G1 X129.845 Y108.084 E.016
G1 X130.318 Y107.99 E.01515
G1 X142.383 Y107.99 E.37829
G1 X142.894 Y108.101 E.01637
G1 X143.31 Y108.389 E.01587
G1 X143.587 Y108.822 E.01614
G1 X143.68 Y109.288 E.01491
G1 X143.68 Y119.931 E.33368
G1 X143.58 Y120.423 E.01576
G1 X143.3 Y120.844 E.01586
G1 X142.868 Y121.132 E.01628
G1 X142.382 Y121.23 E.01554
