; generated by PrusaSlicer 2.4.0+win64 on 2023-05-24 at 08:25:16 UTC

; 

; external perimeters extrusion width = 0.45mm
; perimeters extrusion width = 0.45mm
; infill extrusion width = 0.45mm
; solid infill extrusion width = 0.45mm
; top infill extrusion width = 0.40mm
; first layer extrusion width = 0.42mm

M73 P0 R16
M73 Q0 S16
M201 X1000 Y1000 Z200 E5000 ; sets maximum accelerations, mm/sec^2
M203 X200 Y200 Z12 E120 ; sets maximum feedrates, mm/sec
M204 P1250 R1250 T1250 ; sets acceleration (P, T) and retract acceleration (R), mm/sec^2
M205 X8.00 Y8.00 Z0.40 E4.50 ; sets the jerk limits, mm/sec
M205 S0 T0 ; sets the minimum extruding and travel feed rate, mm/sec
M107
;TYPE:Custom
M862.3 P "MK3" ; printer model check
M862.1 P0.4 ; nozzle diameter check
M115 U3.10.0 ; tell printer latest fw version
G90 ; use absolute coordinates
M83 ; extruder relative mode
M104 S215 ; set extruder temp
M140 S60 ; set bed temp
M190 S60 ; wait for bed temp
M109 S215 ; wait for extruder temp
G28 W ; home all without mesh bed level
G80 ; mesh bed leveling
G1 Z0.2 F720
G1 Y-3 F1000 ; go outside print area
G92 E0
G1 X60 E9 F1000 ; intro line
G1 X100 E12.5 F1000 ; intro line
G92 E0
M221 S95

; Don't change E values below. Excessive value can damage the printer.
M907 E430 ; set extruder motor current
G21 ; set units to millimeters
G90 ; use absolute coordinates
M83 ; use relative distances for extrusion
M900 K0.05 ; Filament gcode LA 1.5
M900 K30 ; Filament gcode LA 1.0
M107
;LAYER_CHANGE
;Z:0.2
;HEIGHT:0.2
;BEFORE_LAYER_CHANGE
G92 E0.0
;0.2


G1 E-.8 F2100
G1 Z.4 F720
;AFTER_LAYER_CHANGE
;0.2
G1 X106.639 Y99.583 F10800
G1 Z.2 F720
G1 E.8 F2100
M204 S800
;TYPE:Skirt/Brim
;WIDTH:0.42
G1 F1200
G1 X107.705 Y98.569 E.04612
G1 X109 Y98.246 E.04186
G1 X141 Y98.246 E1.00334
G1 X142.417 Y98.639 E.04612
G1 X143.431 Y99.705 E.04612
G1 X143.754 Y101 E.04186
G1 X143.754 Y109 E.25083
G1 X143.361 Y110.417 E.04612
G1 X142.295 Y111.431 E.04612
M73 Q1 S16
G1 X141 Y111.754 E.04186
G1 X109 Y111.754 E1.00334
G1 X107.583 Y111.361 E.04612
M73 P1 R16
G1 X106.569 Y110.295 E.04612
G1 X106.246 Y109 E.04186
G1 X106.246 Y101 E.25083
G1 X106.623 Y99.64 E.04424
M204 S1000
G1 X106.997 Y99.752 F10800
M204 S800
G1 F1200
G1 X107.015 Y99.693 E.00195
G1 X108.06 Y98.817 E.04278
G1 X109 Y98.623 E.03008
G1 X141 Y98.623 E1.00334
G1 X142.307 Y99.015 E.04278
G1 X143.183 Y100.06 E.04278
G1 X143.377 Y101 E.03008
G1 X143.377 Y109 E.25083
G1 X142.985 Y110.307 E.04278
G1 X141.94 Y111.183 E.04278
G1 X141 Y111.377 E.03008
G1 X109 Y111.377 E1.00334
G1 X107.693 Y110.985 E.04278
G1 X106.817 Y109.94 E.04278
G1 X106.623 Y109 E.03008
G1 X106.623 Y101 E.25083
G1 X106.979 Y99.81 E.03895
M204 S1000
; printing object 230524 m4 screw hole.stl id:0 copy 0
;WIPE_START
G1 F8640
G1 X107.015 Y99.693 E-.0282
G1 X108.06 Y98.817 E-.31505
G1 X109 Y98.623 E-.22155
G1 X109.845 Y98.623 E-.1952
;WIPE_END
G1 E-.04 F2100
G1 Z.6 F720
G1 X122.478 Y103.617 F10800
G1 Z.2 F720
G1 E.8 F2100
M204 S800
;TYPE:Perimeter
G1 F1200
G1 X122.581 Y103.418 E.00704
G1 X122.956 Y102.956 E.01865
G1 X123.418 Y102.581 E.01865
G1 X123.939 Y102.311 E.01841
G1 X124.472 Y102.158 E.01737
G1 X124.974 Y102.112 E.01581
G1 X125.525 Y102.157 E.01734
G1 X126.061 Y102.311 E.01746
G1 X126.582 Y102.581 E.01841
G1 X127.044 Y102.956 E.01865
G1 X127.419 Y103.418 E.01865
G1 X127.689 Y103.939 E.01841
G1 X127.842 Y104.472 E.01737
G1 X127.89 Y105 E.01663
G1 X127.842 Y105.528 E.01663
G1 X127.689 Y106.061 E.01737
G1 X127.419 Y106.582 E.01841
G1 X127.044 Y107.044 E.01865
G1 X126.582 Y107.419 E.01865
G1 X126.061 Y107.689 E.01841
G1 X125.528 Y107.842 E.01737
G1 X125 Y107.89 E.01663
G1 X124.472 Y107.842 E.01663
G1 X123.939 Y107.689 E.01737
G1 X123.418 Y107.419 E.01841
G1 X122.956 Y107.044 E.01865
G1 X122.581 Y106.582 E.01865
G1 X122.311 Y106.061 E.01841
G1 X122.158 Y105.528 E.01737
G1 X122.11 Y105 E.01663
G1 X122.158 Y104.472 E.01663
G1 X122.311 Y103.939 E.01737
G1 X122.45 Y103.671 E.00949
M204 S1000
G1 X122.663 Y104.08 F10800
M204 S800
;TYPE:External perimeter
G1 F1200
G1 X122.898 Y103.626 E.01603
G1 X123.224 Y103.224 E.01621
G1 X123.626 Y102.898 E.01621
G1 X124.08 Y102.663 E.01603
G1 X124.542 Y102.53 E.01508
G1 X124.976 Y102.49 E.01367
G1 X125.457 Y102.53 E.01514
G1 X125.92 Y102.663 E.01511
G1 X126.374 Y102.898 E.01603
G1 X126.776 Y103.224 E.01621
G1 X127.102 Y103.626 E.01621
G1 X127.337 Y104.08 E.01603
G1 X127.47 Y104.542 E.01508
G1 X127.512 Y105 E.01443
G1 X127.47 Y105.458 E.01443
G1 X127.337 Y105.92 E.01508
G1 X127.102 Y106.374 E.01603
G1 X126.776 Y106.776 E.01621
G1 X126.374 Y107.102 E.01621
G1 X125.92 Y107.337 E.01603
G1 X125.458 Y107.47 E.01508
G1 X125 Y107.512 E.01443
G1 X124.542 Y107.47 E.01443
G1 X124.08 Y107.337 E.01508
G1 X123.626 Y107.102 E.01603
G1 X123.224 Y106.776 E.01621
G1 X122.898 Y106.374 E.01621
G1 X122.663 Y105.92 E.01603
G1 X122.53 Y105.458 E.01508
G1 X122.488 Y105 E.01442
G1 X122.53 Y104.542 E.01443
G1 X122.647 Y104.137 E.0132
M204 S1000
G1 X122.416 Y103.765 F10800
G1 X121.717 Y104.397
M204 S800
;TYPE:Perimeter
G1 F1200
G1 X121.744 Y104.49 E.00305
G1 X121.79 Y105 E.01606
G1 X121.744 Y105.51 E.01606
G1 X121.596 Y106.024 E.01676
G1 X121.335 Y106.527 E.01778
G1 X120.973 Y106.973 E.01801
G1 X120.527 Y107.335 E.01801
G1 X120.024 Y107.596 E.01778
G1 X119.51 Y107.744 E.01676
G1 X119 Y107.79 E.01606
G1 X118.49 Y107.744 E.01606
G1 X117.976 Y107.596 E.01676
G1 X117.473 Y107.335 E.01778
G1 X117.027 Y106.973 E.01801
G1 X116.665 Y106.527 E.01801
M73 Q2 S16
G1 X116.404 Y106.024 E.01778
G1 X116.256 Y105.51 E.01676
G1 X116.21 Y105 E.01606
G1 X116.256 Y104.49 E.01606
G1 X116.404 Y103.976 E.01676
G1 X116.665 Y103.473 E.01778
G1 X117.027 Y103.027 E.01801
G1 X117.473 Y102.665 E.01801
G1 X117.976 Y102.404 E.01778
G1 X118.49 Y102.256 E.01676
M73 P2 R16
G1 X119 Y102.21 E.01606
G1 X119.51 Y102.256 E.01606
G1 X120.024 Y102.404 E.01676
G1 X120.527 Y102.665 E.01778
G1 X120.973 Y103.027 E.01801
G1 X121.335 Y103.473 E.01801
G1 X121.596 Y103.976 E.01778
G1 X121.7 Y104.339 E.01183
M204 S1000
G1 X121.244 Y104.116 F10800
M204 S800
;TYPE:External perimeter
G1 F1200
G1 X121.371 Y104.56 E.01447
G1 X121.412 Y105 E.01385
G1 X121.371 Y105.44 E.01385
G1 X121.244 Y105.884 E.01447
G1 X121.018 Y106.32 E.01539
G1 X120.705 Y106.705 E.01557
G1 X120.32 Y107.018 E.01557
G1 X119.884 Y107.244 E.01539
G1 X119.44 Y107.371 E.01447
G1 X119 Y107.412 E.01385
G1 X118.56 Y107.371 E.01385
G1 X118.116 Y107.244 E.01447
G1 X117.68 Y107.018 E.01539
G1 X117.295 Y106.705 E.01557
G1 X116.982 Y106.32 E.01557
G1 X116.756 Y105.884 E.01539
G1 X116.629 Y105.44 E.01447
G1 X116.588 Y105 E.01385
G1 X116.629 Y104.56 E.01385
G1 X116.756 Y104.116 E.01447
G1 X116.982 Y103.68 E.01539
G1 X117.295 Y103.295 E.01557
G1 X117.68 Y102.982 E.01557
G1 X118.116 Y102.756 E.01539
G1 X118.56 Y102.629 E.01447
G1 X119 Y102.588 E.01385
G1 X119.44 Y102.629 E.01385
G1 X119.884 Y102.756 E.01447
G1 X120.32 Y102.982 E.01539
G1 X120.705 Y103.295 E.01557
G1 X121.018 Y103.68 E.01557
G1 X121.216 Y104.063 E.01351
M204 S1000
G1 X121.64 Y104.174 F10800
;WIPE_START
G1 F8640
G1 X121.371 Y104.56 E-.12021
G1 X121.412 Y105 E-.10202
G1 X121.371 Y105.44 E-.10202
G1 X121.244 Y105.884 E-.1066
G1 X121.018 Y106.32 E-.11337
G1 X120.705 Y106.705 E-.11465
G1 X120.365 Y106.981 E-.10114
;WIPE_END
G1 E-.04 F2100
G1 Z.6 F720
G1 X115.679 Y104.871 F10800
G1 Z.2 F720
G1 E.8 F2100
M204 S800
;TYPE:Perimeter
G1 F1200
G1 X115.69 Y105 E.00406
G1 X115.645 Y105.492 E.01548
G1 X115.501 Y105.992 E.01632
G1 X115.255 Y106.469 E.01683
G1 X114.902 Y106.902 E.01752
G1 X114.469 Y107.255 E.01752
G1 X113.992 Y107.501 E.01683
G1 X113.492 Y107.645 E.01632
G1 X113 Y107.69 E.01548
G1 X112.508 Y107.645 E.01548
G1 X112.008 Y107.501 E.01632
G1 X111.531 Y107.255 E.01683
G1 X111.098 Y106.902 E.01752
G1 X110.745 Y106.469 E.01752
G1 X110.499 Y105.992 E.01683
G1 X110.355 Y105.492 E.01632
G1 X110.31 Y105 E.01548
G1 X110.355 Y104.508 E.01548
G1 X110.499 Y104.008 E.01632
G1 X110.745 Y103.531 E.01683
G1 X111.098 Y103.098 E.01752
G1 X111.531 Y102.745 E.01752
G1 X112.008 Y102.499 E.01683
G1 X112.508 Y102.355 E.01632
G1 X113 Y102.31 E.01548
G1 X113.492 Y102.355 E.01548
G1 X113.992 Y102.499 E.01632
G1 X114.469 Y102.745 E.01683
G1 X114.902 Y103.098 E.01752
G1 X115.255 Y103.531 E.01752
G1 X115.501 Y104.008 E.01683
G1 X115.645 Y104.508 E.01632
G1 X115.673 Y104.811 E.00954
M204 S1000
G1 X115.273 Y104.578 F10800
M204 S800
;TYPE:External perimeter
G1 F1200
G1 X115.312 Y105 E.01328
G1 X115.273 Y105.422 E.01328
G1 X115.149 Y105.852 E.01403
G1 X114.937 Y106.261 E.01445
G1 X114.634 Y106.634 E.01508
G1 X114.261 Y106.937 E.01508
G1 X113.852 Y107.149 E.01445
G1 X113.422 Y107.273 E.01403
G1 X113 Y107.312 E.01328
G1 X112.578 Y107.273 E.01328
G1 X112.148 Y107.149 E.01403
G1 X111.739 Y106.937 E.01445
G1 X111.366 Y106.634 E.01508
G1 X111.063 Y106.261 E.01508
G1 X110.851 Y105.852 E.01445
G1 X110.727 Y105.422 E.01403
G1 X110.688 Y105 E.01328
G1 X110.727 Y104.578 E.01328
G1 X110.851 Y104.148 E.01403
G1 X111.063 Y103.739 E.01445
G1 X111.366 Y103.366 E.01508
G1 X111.739 Y103.063 E.01508
G1 X112.148 Y102.851 E.01445
G1 X112.578 Y102.727 E.01403
G1 X113 Y102.688 E.01328
G1 X113.422 Y102.727 E.01328
G1 X113.852 Y102.851 E.01403
G1 X114.261 Y103.063 E.01445
G1 X114.634 Y103.366 E.01508
G1 X114.937 Y103.739 E.01508
G1 X115.149 Y104.148 E.01445
G1 X115.256 Y104.521 E.01215
M204 S1000
G1 X115.651 Y104.71 F10800
;WIPE_START
G1 F8640
G1 X115.312 Y105 E-.11144
G1 X115.273 Y105.422 E-.0978
G1 X115.149 Y105.852 E-.10332
G1 X114.937 Y106.261 E-.10638
G1 X114.634 Y106.634 E-.11106
G1 X114.261 Y106.937 E-.11106
G1 X113.852 Y107.149 E-.10639
G1 X113.8 Y107.164 E-.01256
;WIPE_END
G1 E-.04 F2100
G1 Z.6 F720
G1 X128.043 Y104.636 F10800
G1 Z.2 F720
G1 E.8 F2100
M204 S800
;TYPE:Perimeter
G1 F1200
G1 X128.059 Y104.459 E.00558
G1 X128.22 Y103.898 E.01828
G1 X128.49 Y103.377 E.01842
G1 X128.68 Y103.116 E.0101
G1 X128.887 Y102.887 E.00968
G1 X129.117 Y102.68 E.00969
G1 X129.377 Y102.49 E.0101
G1 X129.898 Y102.22 E.01842
G1 X130.459 Y102.059 E.01828
G1 X130.974 Y102.012 E.01622
G1 X131.539 Y102.059 E.01776
G1 X132.102 Y102.22 E.01837
G1 X132.623 Y102.49 E.01842
G1 X132.884 Y102.68 E.0101
G1 X133.113 Y102.887 E.00968
G1 X133.32 Y103.117 E.00969
G1 X133.51 Y103.377 E.0101
G1 X133.78 Y103.898 E.01842
G1 X133.941 Y104.459 E.01828
G1 X133.95 Y104.56 E.00318
G1 X133.961 Y104.441 E.00376
G1 X134.123 Y103.876 E.01842
G1 X134.257 Y103.581 E.01015
G1 X134.415 Y103.31 E.00985
G1 X134.603 Y103.053 E.00996
G1 X134.816 Y102.816 E.01001
G1 X135.053 Y102.603 E.01001
G1 X135.31 Y102.415 E.00996
G1 X135.581 Y102.257 E.00985
G1 X135.876 Y102.123 E.01015
G1 X136.441 Y101.961 E.01842
G1 X136.974 Y101.912 E.01679
G1 X137.557 Y101.96 E.01834
G1 X138.124 Y102.123 E.0185
G1 X138.419 Y102.257 E.01015
G1 X138.69 Y102.415 E.00985
G1 X138.947 Y102.603 E.00996
G1 X139.184 Y102.816 E.01001
G1 X139.397 Y103.053 E.01001
G1 X139.585 Y103.31 E.00996
G1 X139.743 Y103.581 E.00985
G1 X139.877 Y103.876 E.01015
G1 X140.039 Y104.441 E.01842
G1 X140.09 Y105 E.01762
G1 X140.039 Y105.559 E.01761
G1 X139.877 Y106.124 E.01842
G1 X139.743 Y106.419 E.01015
G1 X139.585 Y106.69 E.00985
G1 X139.397 Y106.947 E.00996
G1 X139.184 Y107.184 E.01001
G1 X138.947 Y107.397 E.01001
G1 X138.69 Y107.585 E.00996
G1 X138.419 Y107.743 E.00985
G1 X138.124 Y107.877 E.01015
G1 X137.559 Y108.039 E.01842
G1 X137 Y108.09 E.01762
G1 X136.441 Y108.039 E.01761
G1 X135.876 Y107.877 E.01842
G1 X135.581 Y107.743 E.01015
G1 X135.31 Y107.585 E.00985
G1 X135.054 Y107.397 E.00995
G1 X134.816 Y107.184 E.01001
G1 X134.603 Y106.947 E.01001
G1 X134.415 Y106.69 E.00996
G1 X134.257 Y106.419 E.00985
G1 X134.123 Y106.124 E.01015
G1 X133.961 Y105.559 E.01842
G1 X133.95 Y105.44 E.00376
G1 X133.941 Y105.541 E.00318
G1 X133.78 Y106.102 E.01828
G1 X133.51 Y106.623 E.01842
G1 X133.32 Y106.884 E.0101
G1 X133.113 Y107.113 E.00969
G1 X132.883 Y107.32 E.00969
G1 X132.623 Y107.51 E.0101
G1 X132.102 Y107.78 E.01842
G1 X131.541 Y107.941 E.01829
G1 X131 Y107.99 E.01704
G1 X130.459 Y107.941 E.01704
G1 X129.898 Y107.78 E.01828
G1 X129.377 Y107.51 E.01842
G1 X129.116 Y107.32 E.0101
G1 X128.887 Y107.113 E.00968
G1 X128.68 Y106.883 E.00969
G1 X128.49 Y106.623 E.0101
G1 X128.22 Y106.102 E.01842
G1 X128.059 Y105.541 E.01828
G1 X128.01 Y105 E.01704
G1 X128.038 Y104.696 E.00958
M204 S1000
G1 X128.388 Y105 F10800
M204 S800
;TYPE:External perimeter
G1 F1200
G1 X128.432 Y104.529 E.01484
G1 X128.572 Y104.038 E.01599
G1 X128.812 Y103.576 E.01634
G1 X128.973 Y103.355 E.00859
G1 X129.154 Y103.154 E.00846
G1 X129.355 Y102.973 E.00847
G1 X129.576 Y102.812 E.00858
G1 X130.038 Y102.572 E.01634
G1 X130.529 Y102.432 E.01599
G1 X130.976 Y102.391 E.01408
G1 X131.47 Y102.431 E.01556
G1 X131.962 Y102.572 E.01602
G1 X132.424 Y102.812 E.01634
G1 X132.645 Y102.973 E.00859
G1 X132.846 Y103.154 E.00846
G1 X133.027 Y103.355 E.00846
G1 X133.188 Y103.576 E.00858
G1 X133.428 Y104.038 E.01634
G1 X133.568 Y104.529 E.01599
G1 X133.612 Y105 E.01484
G1 X133.568 Y105.471 E.01484
G1 X133.428 Y105.962 E.01599
G1 X133.188 Y106.424 E.01634
G1 X133.027 Y106.645 E.00859
G1 X132.846 Y106.846 E.00846
G1 X132.645 Y107.027 E.00846
G1 X132.424 Y107.188 E.00858
G1 X131.962 Y107.428 E.01634
G1 X131.471 Y107.568 E.01599
G1 X131 Y107.612 E.01484
G1 X130.529 Y107.568 E.01484
G1 X130.038 Y107.428 E.01599
G1 X129.576 Y107.188 E.01634
G1 X129.355 Y107.027 E.00858
G1 X129.154 Y106.846 E.00846
G1 X128.973 Y106.645 E.00846
G1 X128.812 Y106.424 E.00858
G1 X128.572 Y105.962 E.01634
G1 X128.432 Y105.471 E.01599
G1 X128.394 Y105.06 E.01296
M204 S1000
G1 X128.041 Y104.801 F10800
;WIPE_START
G1 F8640
G1 X128.432 Y104.529 E-.12295
G1 X128.572 Y104.038 E-.11776
G1 X128.812 Y103.576 E-.12032
G1 X128.973 Y103.355 E-.06323
G1 X129.154 Y103.154 E-.06229
G1 X129.355 Y102.973 E-.06236
G1 X129.576 Y102.812 E-.06321
G1 X130.038 Y102.572 E-.12032
G1 X130.153 Y102.539 E-.02756
;WIPE_END
G1 E-.04 F2100
G1 Z.6 F720
G1 X134.288 Y105 F10800
G1 Z.2 F720
G1 E.8 F2100
M204 S800
G1 F1200
G1 X134.333 Y104.51 E.01541
G1 X134.478 Y104.007 E.01643
G1 X134.592 Y103.755 E.00867
G1 X134.731 Y103.517 E.00865
G1 X134.896 Y103.292 E.00874
G1 X135.083 Y103.083 E.00879
G1 X135.291 Y102.896 E.00879
G1 X135.517 Y102.731 E.00874
G1 X135.755 Y102.592 E.00865
G1 X136.007 Y102.478 E.00868
G1 X136.51 Y102.333 E.01643
G1 X136.976 Y102.291 E.01465
G1 X137.489 Y102.333 E.01614
G1 X137.993 Y102.478 E.01646
G1 X138.245 Y102.592 E.00867
G1 X138.483 Y102.731 E.00865
G1 X138.708 Y102.896 E.00874
G1 X138.917 Y103.083 E.00879
G1 X139.104 Y103.292 E.00879
G1 X139.269 Y103.517 E.00874
G1 X139.408 Y103.755 E.00865
G1 X139.522 Y104.007 E.00868
G1 X139.667 Y104.51 E.01643
G1 X139.712 Y105 E.01542
G1 X139.667 Y105.49 E.01541
G1 X139.522 Y105.993 E.01643
G1 X139.408 Y106.245 E.00867
G1 X139.269 Y106.483 E.00865
G1 X139.104 Y106.708 E.00874
G1 X138.917 Y106.917 E.00879
G1 X138.709 Y107.104 E.00879
G1 X138.483 Y107.269 E.00874
G1 X138.245 Y107.408 E.00865
G1 X137.993 Y107.522 E.00868
G1 X137.49 Y107.667 E.01643
G1 X137 Y107.712 E.01542
G1 X136.51 Y107.667 E.01541
G1 X136.007 Y107.522 E.01643
G1 X135.755 Y107.408 E.00867
G1 X135.517 Y107.269 E.00865
G1 X135.292 Y107.104 E.00874
G1 X135.083 Y106.917 E.00879
G1 X134.896 Y106.708 E.00879
G1 X134.731 Y106.483 E.00874
G1 X134.592 Y106.245 E.00865
G1 X134.478 Y105.993 E.00868
G1 X134.333 Y105.49 E.01643
G1 X134.294 Y105.06 E.01353
M204 S1000
G1 X133.942 Y104.801 F10800
;WIPE_START
G1 F8640
G1 X134.333 Y104.51 E-.12717
G1 X134.478 Y104.007 E-.121
G1 X134.592 Y103.755 E-.06388
G1 X134.731 Y103.517 E-.06369
G1 X134.896 Y103.292 E-.06437
G1 X135.083 Y103.083 E-.06471
G1 X135.291 Y102.896 E-.06471
G1 X135.517 Y102.731 E-.06437
G1 X135.755 Y102.592 E-.06368
G1 X136.001 Y102.48 E-.06242
;WIPE_END
G1 E-.04 F2100
G1 Z.6 F720
G1 X140.213 Y102.187 F10800
G1 Z.2 F720
G1 E.8 F2100
M204 S800
;TYPE:Perimeter
G1 F1200
G1 X140.213 Y108.213 E.18894
G1 X109.787 Y108.213 E.95398
G1 X109.787 Y101.787 E.20148
M73 P3 R15
M73 Q3 S16
G1 X140.213 Y101.787 E.95398
G1 X140.213 Y102.127 E.01066
M204 S1000
G1 X140.59 Y101.41 F10800
M204 S800
;TYPE:External perimeter
G1 F1200
G1 X140.59 Y108.59 E.22512
G1 X109.41 Y108.59 E.97763
